;FLAVOR:Marlin
;TIME:6528
;Filament used: 3.50031m
;Layer height: 0.13125
;MINX:34.866
;MINY:36.167
;MINZ:0.263
;MAXX:85.34
;MAXY:85.774
;MAXZ:26.201
;Generated with Cura_SteamEngine 4.13.1
M140 S65
M105
M190 S65
M104 S205
M105
M109 S205
M82 ;absolute extrusion mode
G21;(metric values)
G90;(absolute positioning)
M82;(set extruder to absolute mode)
M107;(start with the fan off)
G28;(Home the printer)
G92 E0;(Reset the extruder to 0)
G0 Z5 E5 F500;(Move up and prime the nozzle)
G0 X-1 Z0;(Move outside the printable area)
G1 Y60 E8 F500;(Draw a priming/wiping line to the rear)
G1 X-1;(Move a little closer to the print area)
G1 Y10 E16 F500;(draw more priming/wiping)
G1 E15 F250;(Small retract)
G92 E0;(Zero the extruder)
G92 E0
G92 E0
G1 F2400 E-2.5
;LAYER_COUNT:199
;LAYER:0
M107
G0 F4320 X36.24 Y37.77 Z0.263
;TYPE:SKIRT
G1 F2400 E0
G1 F1800 X36.704 Y37.334 E0.02437
G1 X37.219 Y36.959 E0.04875
G1 X37.776 Y36.652 E0.07309
G1 X38.368 Y36.417 E0.09746
G1 X38.985 Y36.258 E0.12185
G1 X39.617 Y36.177 E0.14623
G1 X39.941 Y36.167 E0.15864
G1 X80.046 Y36.167 E1.69345
G1 X80.682 Y36.207 E1.71784
G1 X81.307 Y36.326 E1.74219
G1 X81.913 Y36.523 E1.76657
G1 X82.489 Y36.794 E1.79094
G1 X83.027 Y37.135 E1.81531
G1 X83.518 Y37.541 E1.83969
G1 X83.954 Y38.005 E1.86406
G1 X84.329 Y38.52 E1.88844
G1 X84.636 Y39.077 E1.91278
G1 X84.871 Y39.669 E1.93716
G1 X85.03 Y40.286 E1.96154
G1 X85.111 Y40.918 E1.98593
G1 X85.121 Y41.242 E1.99833
G1 X85.121 Y70.477 E3.11715
G1 X85.249 Y70.974 E3.13679
G1 X85.33 Y71.606 E3.16118
G1 X85.34 Y71.93 E3.17358
G1 X85.34 Y80.699 E3.50917
G1 X85.3 Y81.335 E3.53356
G1 X85.181 Y81.96 E3.55791
G1 X84.984 Y82.566 E3.5823
G1 X84.713 Y83.142 E3.60666
G1 X84.372 Y83.68 E3.63103
G1 X83.966 Y84.171 E3.65542
G1 X83.502 Y84.607 E3.67978
G1 X82.987 Y84.982 E3.70416
G1 X82.43 Y85.289 E3.7285
G1 X81.838 Y85.524 E3.75288
G1 X81.221 Y85.683 E3.77726
G1 X80.589 Y85.764 E3.80165
G1 X80.265 Y85.774 E3.81405
G1 X68.397 Y85.774 E4.26824
G1 X67.761 Y85.734 E4.29263
G1 X67.136 Y85.615 E4.31698
G1 X66.53 Y85.418 E4.34136
G1 X65.954 Y85.147 E4.36572
G1 X65.416 Y84.806 E4.3901
G1 X64.925 Y84.4 E4.41448
G1 X64.489 Y83.936 E4.43885
G1 X64.114 Y83.421 E4.46323
G1 X63.807 Y82.864 E4.48757
G1 X63.572 Y82.272 E4.51194
G1 X63.413 Y81.655 E4.53633
G1 X63.332 Y81.023 E4.56071
G1 X63.322 Y80.699 E4.57312
G1 X63.322 Y71.93 E4.90871
G1 X63.362 Y71.294 E4.9331
G1 X63.481 Y70.669 E4.95744
G1 X63.678 Y70.063 E4.98183
G1 X63.949 Y69.487 E5.00619
G1 X64.29 Y68.949 E5.03057
G1 X64.696 Y68.458 E5.05495
G1 X65.16 Y68.022 E5.07932
G1 X65.675 Y67.647 E5.1037
G1 X66.232 Y67.34 E5.12804
G1 X66.824 Y67.105 E5.15241
G1 X66.949 Y67.073 E5.15735
G1 X66.949 Y55.085 E5.61613
G1 X53.037 Y55.085 E6.14854
G1 X53.037 Y66.988 E6.60407
G1 X53.174 Y67.014 E6.60941
G1 X53.78 Y67.211 E6.63379
G1 X54.356 Y67.482 E6.65815
G1 X54.894 Y67.823 E6.68253
G1 X55.385 Y68.229 E6.70691
G1 X55.821 Y68.693 E6.73128
G1 X56.196 Y69.208 E6.75566
G1 X56.503 Y69.765 E6.78
G1 X56.738 Y70.357 E6.80437
G1 X56.897 Y70.974 E6.82876
G1 X56.978 Y71.606 E6.85314
G1 X56.988 Y71.931 E6.86559
G1 X56.987 Y80.7 E7.20118
G1 X56.947 Y81.335 E7.22553
G1 X56.828 Y81.961 E7.24991
G1 X56.631 Y82.566 E7.27426
G1 X56.36 Y83.143 E7.29866
G1 X56.019 Y83.681 E7.32303
G1 X55.613 Y84.171 E7.34739
G1 X55.149 Y84.608 E7.37178
G1 X54.634 Y84.982 E7.39614
G1 X54.076 Y85.289 E7.42051
G1 X53.484 Y85.524 E7.44489
G1 X52.867 Y85.683 E7.46927
G1 X52.236 Y85.764 E7.49362
G1 X51.912 Y85.774 E7.50602
G1 X39.941 Y85.774 E7.96415
G1 X39.305 Y85.734 E7.98854
G1 X38.68 Y85.615 E8.01289
G1 X38.074 Y85.418 E8.03727
G1 X37.498 Y85.147 E8.06164
G1 X36.96 Y84.806 E8.08601
G1 X36.469 Y84.4 E8.11039
G1 X36.033 Y83.936 E8.13476
G1 X35.658 Y83.421 E8.15914
G1 X35.351 Y82.864 E8.18348
G1 X35.116 Y82.272 E8.20786
G1 X34.957 Y81.655 E8.23224
G1 X34.876 Y81.023 E8.25663
G1 X34.866 Y80.699 E8.26903
G1 X34.866 Y41.242 E9.77905
G1 X34.906 Y40.606 E9.80344
G1 X35.025 Y39.981 E9.82778
G1 X35.222 Y39.375 E9.85217
G1 X35.493 Y38.799 E9.87653
G1 X35.804 Y38.309 E9.89874
G0 F1620 X35.834 Y38.261
G0 X36.24 Y37.77
G0 F4320 X36.585 Y37.916
G1 F1800 X37.045 Y37.509 E9.92225
G1 X37.554 Y37.164 E9.94578
G1 X38.103 Y36.889 E9.96928
G1 X38.684 Y36.687 E9.99282
G1 X39.285 Y36.563 E10.0163
G1 X39.941 Y36.517 E10.04147
G1 X80.046 Y36.517 E11.57629
G1 X80.659 Y36.557 E11.5998
G1 X81.262 Y36.676 E11.62332
G1 X81.844 Y36.873 E11.64683
G1 X82.396 Y37.143 E11.67035
G1 X82.908 Y37.483 E11.69387
G1 X83.372 Y37.886 E11.71739
G1 X83.779 Y38.346 E11.7409
G1 X84.124 Y38.855 E11.76443
G1 X84.399 Y39.404 E11.78793
G1 X84.601 Y39.985 E11.81147
G1 X84.725 Y40.586 E11.83495
G1 X84.771 Y41.242 E11.86012
G1 X84.771 Y70.532 E12.98104
G1 X84.82 Y70.673 E12.98676
G1 X84.944 Y71.274 E13.01024
G1 X84.99 Y71.93 E13.03541
G1 X84.99 Y80.699 E13.371
G1 X84.95 Y81.312 E13.39451
G1 X84.831 Y81.915 E13.41803
G1 X84.634 Y82.497 E13.44154
G1 X84.364 Y83.049 E13.46506
G1 X84.024 Y83.561 E13.48858
G1 X83.621 Y84.025 E13.5121
G1 X83.161 Y84.432 E13.53561
G1 X82.652 Y84.777 E13.55914
G1 X82.103 Y85.052 E13.58264
G1 X81.522 Y85.254 E13.60618
G1 X80.921 Y85.378 E13.62966
G1 X80.265 Y85.424 E13.65483
G1 X68.397 Y85.424 E14.10902
G1 X67.784 Y85.384 E14.13253
G1 X67.181 Y85.265 E14.15605
G1 X66.599 Y85.068 E14.17956
G1 X66.047 Y84.798 E14.20308
G1 X65.535 Y84.458 E14.2266
G1 X65.071 Y84.055 E14.25012
G1 X64.664 Y83.595 E14.27363
G1 X64.319 Y83.086 E14.29716
G1 X64.044 Y82.537 E14.32066
G1 X63.842 Y81.956 E14.3442
G1 X63.718 Y81.355 E14.36768
G1 X63.672 Y80.699 E14.39285
G1 X63.672 Y71.93 E14.72844
G1 X63.712 Y71.317 E14.75195
G1 X63.831 Y70.714 E14.77547
G1 X64.028 Y70.132 E14.79898
G1 X64.298 Y69.58 E14.8225
G1 X64.638 Y69.068 E14.84602
G1 X65.041 Y68.604 E14.86954
G1 X65.501 Y68.197 E14.89305
G1 X66.01 Y67.852 E14.91658
G1 X66.559 Y67.577 E14.94008
G1 X67.14 Y67.375 E14.96362
G1 X67.299 Y67.342 E14.96983
G1 X67.299 Y54.735 E15.4523
G1 X52.687 Y54.735 E16.0115
G1 X52.687 Y67.277 E16.49148
G1 X53.129 Y67.364 E16.50872
G1 X53.711 Y67.561 E16.53224
G1 X54.263 Y67.831 E16.55576
G1 X54.775 Y68.171 E16.57928
G1 X55.239 Y68.574 E16.6028
G1 X55.646 Y69.034 E16.6263
G1 X55.991 Y69.543 E16.64983
G1 X56.266 Y70.092 E16.67333
G1 X56.468 Y70.673 E16.69687
G1 X56.592 Y71.274 E16.72036
G1 X56.638 Y71.931 E16.74556
G1 X56.637 Y80.7 E17.08115
G1 X56.597 Y81.313 E17.10466
G1 X56.478 Y81.916 E17.12818
G1 X56.281 Y82.498 E17.1517
G1 X56.011 Y83.05 E17.17521
G1 X55.671 Y83.562 E17.19874
G1 X55.268 Y84.025 E17.22223
G1 X54.808 Y84.433 E17.24576
G1 X54.299 Y84.777 E17.26927
G1 X53.749 Y85.052 E17.2928
G1 X53.169 Y85.254 E17.31631
G1 X52.567 Y85.378 E17.33983
G1 X51.912 Y85.424 E17.36496
G1 X39.941 Y85.424 E17.82309
G1 X39.328 Y85.384 E17.84659
G1 X38.725 Y85.265 E17.87012
G1 X38.143 Y85.068 E17.89363
G1 X37.591 Y84.798 E17.91715
G1 X37.079 Y84.458 E17.94067
G1 X36.615 Y84.055 E17.96419
G1 X36.208 Y83.595 E17.98769
G1 X35.863 Y83.086 E18.01123
G1 X35.588 Y82.537 E18.03473
G1 X35.386 Y81.956 E18.05827
G1 X35.262 Y81.355 E18.08175
G1 X35.216 Y80.699 E18.10692
G1 X35.216 Y41.242 E19.61693
G1 X35.256 Y40.629 E19.64044
G1 X35.375 Y40.026 E19.66397
G1 X35.572 Y39.444 E19.68748
G1 X35.842 Y38.892 E19.711
G1 X36.138 Y38.446 E19.73148
G0 F1620 X36.182 Y38.38
G0 X36.585 Y37.916
G0 F4320 X36.929 Y38.069
G1 F1800 X37.385 Y37.692 E19.75412
G1 X37.887 Y37.379 E19.77676
G1 X38.426 Y37.138 E19.79936
G1 X38.994 Y36.971 E19.82202
G1 X39.578 Y36.882 E19.84463
G1 X39.941 Y36.867 E19.85853
G1 X80.046 Y36.867 E21.39335
G1 X80.636 Y36.907 E21.41598
G1 X81.215 Y37.026 E21.4386
G1 X81.773 Y37.222 E21.46123
G1 X82.299 Y37.492 E21.48386
G1 X82.784 Y37.83 E21.50648
G1 X83.219 Y38.23 E21.5291
G1 X83.596 Y38.686 E21.55174
G1 X83.909 Y39.188 E21.57438
G1 X84.15 Y39.727 E21.59698
G1 X84.317 Y40.295 E21.61963
G1 X84.406 Y40.879 E21.64224
G1 X84.421 Y41.242 E21.65615
G1 X84.421 Y70.592 E22.77937
G1 X84.536 Y70.983 E22.79497
G1 X84.625 Y71.567 E22.81757
G1 X84.64 Y71.93 E22.83148
G1 X84.64 Y80.699 E23.16707
G1 X84.6 Y81.289 E23.1897
G1 X84.481 Y81.868 E23.21232
G1 X84.285 Y82.426 E23.23495
G1 X84.015 Y82.952 E23.25758
G1 X83.677 Y83.437 E23.2802
G1 X83.277 Y83.872 E23.30282
G1 X82.821 Y84.249 E23.32546
G1 X82.319 Y84.562 E23.3481
G1 X81.78 Y84.803 E23.3707
G1 X81.212 Y84.97 E23.39335
G1 X80.628 Y85.059 E23.41596
G1 X80.265 Y85.074 E23.42987
G1 X68.397 Y85.074 E23.88405
G1 X67.807 Y85.034 E23.90668
G1 X67.228 Y84.915 E23.92931
G1 X66.67 Y84.719 E23.95194
G1 X66.144 Y84.449 E23.97457
G1 X65.659 Y84.111 E23.99719
G1 X65.224 Y83.711 E24.01981
G1 X64.847 Y83.255 E24.04245
G1 X64.534 Y82.753 E24.06509
G1 X64.293 Y82.214 E24.08768
G1 X64.126 Y81.646 E24.11034
G1 X64.037 Y81.062 E24.13295
G1 X64.022 Y80.699 E24.14685
G1 X64.022 Y71.93 E24.48244
G1 X64.062 Y71.34 E24.50507
G1 X64.181 Y70.761 E24.5277
G1 X64.377 Y70.203 E24.55033
G1 X64.647 Y69.677 E24.57296
G1 X64.985 Y69.192 E24.59558
G1 X65.385 Y68.757 E24.6182
G1 X65.841 Y68.38 E24.64084
G1 X66.343 Y68.067 E24.66348
G1 X66.882 Y67.826 E24.68607
G1 X67.45 Y67.659 E24.70873
G1 X67.649 Y67.629 E24.71643
G1 X67.649 Y54.385 E25.22328
G1 X52.337 Y54.385 E25.80927
G1 X52.337 Y67.584 E26.31439
G1 X52.503 Y67.595 E26.32076
G1 X53.082 Y67.714 E26.34338
G1 X53.64 Y67.91 E26.36602
G1 X54.166 Y68.18 E26.38864
G1 X54.651 Y68.518 E26.41127
G1 X55.086 Y68.918 E26.43388
G1 X55.463 Y69.374 E26.45653
G1 X55.776 Y69.876 E26.47917
G1 X56.017 Y70.415 E26.50176
G1 X56.184 Y70.983 E26.52442
G1 X56.273 Y71.567 E26.54703
G1 X56.288 Y71.93 E26.56093
G1 X56.287 Y80.699 E26.89652
G1 X56.247 Y81.289 E26.91915
G1 X56.128 Y81.869 E26.94181
G1 X55.932 Y82.426 E26.96441
G1 X55.662 Y82.953 E26.98707
G1 X55.324 Y83.438 E27.00969
G1 X54.923 Y83.873 E27.03233
G1 X54.468 Y84.25 E27.05495
G1 X53.966 Y84.562 E27.07757
G1 X53.426 Y84.804 E27.10021
G1 X52.859 Y84.97 E27.12282
G1 X52.274 Y85.059 E27.14547
G1 X51.912 Y85.074 E27.15933
G1 X39.941 Y85.074 E27.61746
G1 X39.351 Y85.034 E27.64009
G1 X38.772 Y84.915 E27.66272
G1 X38.214 Y84.719 E27.68535
G1 X37.688 Y84.449 E27.70798
G1 X37.203 Y84.111 E27.7306
G1 X36.768 Y83.711 E27.75322
G1 X36.391 Y83.255 E27.77586
G1 X36.078 Y82.753 E27.7985
G1 X35.837 Y82.214 E27.82109
G1 X35.67 Y81.646 E27.84375
G1 X35.581 Y81.062 E27.86636
G1 X35.566 Y80.699 E27.88026
G1 X35.566 Y41.242 E29.39028
G1 X35.606 Y40.652 E29.41291
G1 X35.725 Y40.073 E29.43553
G1 X35.921 Y39.515 E29.45817
G1 X36.191 Y38.989 E29.48079
G1 X36.47 Y38.589 E29.49946
G0 F1620 X36.529 Y38.504
G0 X36.929 Y38.069
G0 F4320 X36.876 Y38.634
G1 F1800 X37.273 Y38.229 E29.52116
G1 X37.723 Y37.883 E29.54288
G1 X38.217 Y37.605 E29.56458
G1 X38.745 Y37.399 E29.58627
G1 X39.297 Y37.269 E29.60797
G1 X39.941 Y37.217 E29.6327
G1 X80.046 Y37.217 E31.16751
G1 X80.612 Y37.257 E31.18923
G1 X81.166 Y37.376 E31.21091
G1 X81.698 Y37.572 E31.23261
G1 X82.198 Y37.84 E31.25432
G1 X82.654 Y38.177 E31.27602
G1 X83.059 Y38.574 E31.29772
G1 X83.405 Y39.024 E31.31945
G1 X83.683 Y39.518 E31.34114
G1 X83.889 Y40.046 E31.36283
G1 X84.019 Y40.598 E31.38453
G1 X84.071 Y41.242 E31.40926
G1 X84.071 Y70.639 E32.53428
G1 X84.108 Y70.734 E32.53818
G1 X84.238 Y71.286 E32.55989
G1 X84.29 Y71.93 E32.58461
G1 X84.29 Y80.699 E32.9202
G1 X84.25 Y81.265 E32.94192
G1 X84.131 Y81.819 E32.9636
G1 X83.935 Y82.351 E32.9853
G1 X83.667 Y82.851 E33.00701
G1 X83.33 Y83.307 E33.02871
G1 X82.933 Y83.712 E33.05041
G1 X82.483 Y84.058 E33.07214
G1 X81.989 Y84.336 E33.09383
G1 X81.461 Y84.542 E33.11552
G1 X80.909 Y84.672 E33.13722
G1 X80.265 Y84.724 E33.16195
G1 X68.397 Y84.724 E33.61614
G1 X67.831 Y84.684 E33.63785
G1 X67.277 Y84.565 E33.65954
G1 X66.745 Y84.369 E33.68123
G1 X66.245 Y84.101 E33.70294
G1 X65.789 Y83.764 E33.72464
G1 X65.384 Y83.367 E33.74635
G1 X65.038 Y82.917 E33.76807
G1 X64.76 Y82.423 E33.78976
G1 X64.554 Y81.895 E33.81145
G1 X64.424 Y81.343 E33.83316
G1 X64.372 Y80.699 E33.85788
G1 X64.372 Y71.93 E34.19347
G1 X64.412 Y71.364 E34.21519
G1 X64.531 Y70.81 E34.23687
G1 X64.727 Y70.278 E34.25857
G1 X64.995 Y69.778 E34.28028
G1 X65.332 Y69.322 E34.30198
G1 X65.729 Y68.917 E34.32368
G1 X66.179 Y68.571 E34.34541
G1 X66.673 Y68.293 E34.3671
G1 X67.201 Y68.087 E34.38879
G1 X67.753 Y67.957 E34.41049
G1 X67.999 Y67.937 E34.41994
G1 X67.999 Y54.035 E34.95197
G1 X51.987 Y54.035 E35.56475
G1 X51.987 Y67.91 E36.09574
G1 X52.479 Y67.945 E36.11462
G1 X53.033 Y68.064 E36.1363
G1 X53.565 Y68.26 E36.158
G1 X54.065 Y68.528 E36.17971
G1 X54.521 Y68.865 E36.20141
G1 X54.926 Y69.262 E36.22311
G1 X55.272 Y69.712 E36.24484
G1 X55.55 Y70.206 E36.26653
G1 X55.756 Y70.734 E36.28822
G1 X55.886 Y71.286 E36.30992
G1 X55.938 Y71.93 E36.33465
G1 X55.937 Y80.699 E36.67024
G1 X55.897 Y81.265 E36.69195
G1 X55.778 Y81.82 E36.71368
G1 X55.582 Y82.352 E36.73537
G1 X55.313 Y82.851 E36.75707
G1 X54.977 Y83.308 E36.77878
G1 X54.58 Y83.713 E36.80048
G1 X54.13 Y84.058 E36.82218
G1 X53.636 Y84.336 E36.84387
G1 X53.108 Y84.542 E36.86556
G1 X52.556 Y84.672 E36.88727
G1 X51.912 Y84.724 E36.91199
G1 X39.941 Y84.724 E37.37012
G1 X39.375 Y84.684 E37.39184
G1 X38.821 Y84.565 E37.41352
G1 X38.289 Y84.369 E37.43522
G1 X37.789 Y84.101 E37.45693
G1 X37.333 Y83.764 E37.47863
G1 X36.928 Y83.367 E37.50033
G1 X36.582 Y82.917 E37.52206
G1 X36.304 Y82.423 E37.54375
G1 X36.098 Y81.895 E37.56544
G1 X35.968 Y81.343 E37.58714
G1 X35.916 Y80.699 E37.61187
G1 X35.916 Y41.242 E39.12189
G1 X35.956 Y40.676 E39.1436
G1 X36.075 Y40.122 E39.16529
G1 X36.271 Y39.59 E39.18698
G1 X36.479 Y39.201 E39.20387
G0 F1620 X36.539 Y39.09
G0 X36.876 Y38.634
G0 F4320 X37.222 Y38.77
G1 F1800 X37.615 Y38.397 E39.2246
G1 X38.059 Y38.086 E39.24535
G1 X38.543 Y37.843 E39.26607
G1 X39.058 Y37.675 E39.2868
G1 X39.592 Y37.584 E39.30754
G1 X39.941 Y37.567 E39.32091
G1 X80.046 Y37.567 E40.85572
G1 X80.586 Y37.607 E40.87645
G1 X81.115 Y37.726 E40.8972
G1 X81.62 Y37.921 E40.91791
G1 X82.092 Y38.189 E40.93869
G1 X82.518 Y38.523 E40.9594
G1 X82.891 Y38.916 E40.98014
G1 X83.202 Y39.36 E41.00088
G1 X83.445 Y39.844 E41.02161
G1 X83.613 Y40.359 E41.04234
G1 X83.704 Y40.893 E41.06307
G1 X83.721 Y41.242 E41.07644
G1 X83.721 Y70.707 E42.20407
G1 X83.832 Y71.047 E42.21776
G1 X83.923 Y71.581 E42.23849
G1 X83.94 Y71.93 E42.25186
G1 X83.94 Y80.699 E42.58745
G1 X83.9 Y81.239 E42.60817
G1 X83.781 Y81.768 E42.62892
G1 X83.586 Y82.273 E42.64964
G1 X83.318 Y82.745 E42.67041
G1 X82.984 Y83.171 E42.69113
G1 X82.591 Y83.544 E42.71186
G1 X82.147 Y83.855 E42.73261
G1 X81.663 Y84.098 E42.75333
G1 X81.148 Y84.266 E42.77406
G1 X80.614 Y84.357 E42.7948
G1 X80.265 Y84.374 E42.80817
G1 X68.397 Y84.374 E43.26236
G1 X67.857 Y84.334 E43.28308
G1 X67.328 Y84.215 E43.30383
G1 X66.823 Y84.02 E43.32455
G1 X66.351 Y83.752 E43.34532
G1 X65.925 Y83.418 E43.36603
G1 X65.552 Y83.025 E43.38677
G1 X65.241 Y82.581 E43.40752
G1 X64.998 Y82.097 E43.42824
G1 X64.83 Y81.582 E43.44897
G1 X64.739 Y81.048 E43.4697
G1 X64.722 Y80.699 E43.48308
G1 X64.722 Y71.93 E43.81866
G1 X64.762 Y71.39 E43.83939
G1 X64.881 Y70.861 E43.86014
G1 X65.076 Y70.356 E43.88085
G1 X65.344 Y69.884 E43.90163
G1 X65.678 Y69.458 E43.92234
G1 X66.071 Y69.085 E43.94308
G1 X66.515 Y68.774 E43.96382
G1 X66.999 Y68.531 E43.98455
G1 X67.514 Y68.363 E44.00528
G1 X68.048 Y68.272 E44.02601
G1 X68.349 Y68.257 E44.03755
G1 X68.349 Y53.685 E44.59522
G1 X51.637 Y53.685 E45.23478
G1 X51.637 Y68.255 E45.79238
G1 X51.913 Y68.255 E45.80294
G1 X52.453 Y68.295 E45.82366
G1 X52.982 Y68.414 E45.84441
G1 X53.487 Y68.609 E45.86513
G1 X53.959 Y68.877 E45.8859
G1 X54.385 Y69.211 E45.90662
G1 X54.758 Y69.604 E45.92735
G1 X55.069 Y70.048 E45.9481
G1 X55.312 Y70.532 E45.96882
G1 X55.48 Y71.047 E45.98956
G1 X55.571 Y71.581 E46.01029
G1 X55.588 Y71.93 E46.02366
G1 X55.587 Y80.699 E46.35925
G1 X55.547 Y81.24 E46.38001
G1 X55.428 Y81.768 E46.40072
G1 X55.233 Y82.274 E46.42147
G1 X54.965 Y82.745 E46.44221
G1 X54.631 Y83.172 E46.46296
G1 X54.238 Y83.544 E46.48367
G1 X53.794 Y83.856 E46.50444
G1 X53.309 Y84.098 E46.52518
G1 X52.794 Y84.266 E46.54591
G1 X52.26 Y84.357 E46.56664
G1 X51.912 Y84.374 E46.57998
G1 X39.941 Y84.374 E47.03811
G1 X39.401 Y84.334 E47.05883
G1 X38.872 Y84.215 E47.07958
G1 X38.367 Y84.02 E47.1003
G1 X37.895 Y83.752 E47.12107
G1 X37.469 Y83.418 E47.14178
