;FLAVOR:Marlin
;TIME:302
;Filament used: 0.223465m
;Layer height: 0.2
;MINX:87.388
;MINY:87.463
;MINZ:0.3
;MAXX:112.462
;MAXY:112.537
;MAXZ:9.7
;Generated with Cura_SteamEngine 4.13.1
M140 S60
M105
M190 S60
M104 S200
M105
M109 S200
M82 ;absolute extrusion mode
G21 ;metric values
 G90 ;absolute positioning
 M82 ;set extruder to absolute mode
 M107 ;start with the fan off
 G28 X0 Y0 ;move X/Y to min endstops
 G28 Z0 ;move Z to min endstops
 G1 Z15.0 F120 ;move the platform down 15mm
 G92 E0 ;zero the extruded length
 G1 F200 E6 ;extrude 6 mm of feed stock
 G92 E0 ;zero the extruded length again
 G1 F120 
 ;Put printing message on LCD screen
 M117 Printing...
G92 E0
G92 E0
G1 F1500 E-6.5
;LAYER_COUNT:48
;LAYER:0
M107
G0 F3600 X90.896 Y91.3 Z0.3
;TYPE:SKIRT
G1 F1500 E0
G1 F3000 X91.466 Y90.754 E0.03938
G1 X91.826 Y90.46 E0.06257
G1 X92.809 Y89.706 E0.12438
G1 X93.459 Y89.258 E0.16376
G1 X94.151 Y88.877 E0.20317
G1 X94.574 Y88.687 E0.22631
G1 X95.715 Y88.215 E0.28791
G1 X96.459 Y87.951 E0.32729
G1 X97.226 Y87.763 E0.36669
G1 X97.664 Y87.692 E0.38883
G1 X98.892 Y87.528 E0.45064
G1 X99.679 Y87.463 E0.49004
G1 X100.469 Y87.478 E0.52946
G1 X100.957 Y87.528 E0.55393
G1 X102.186 Y87.692 E0.61579
G1 X102.962 Y87.835 E0.65516
G1 X103.72 Y88.057 E0.69456
G1 X104.138 Y88.216 E0.71687
G1 X105.278 Y88.688 E0.77843
G1 X105.991 Y89.027 E0.81782
G1 X106.667 Y89.436 E0.85724
G1 X107.038 Y89.704 E0.88007
G1 X108.022 Y90.458 E0.94192
G1 X108.624 Y90.969 E0.98131
G1 X109.171 Y91.539 E1.02073
G1 X109.467 Y91.902 E1.04409
G1 X110.221 Y92.885 E1.1059
G1 X110.669 Y93.535 E1.14529
G1 X111.05 Y94.227 E1.1847
G1 X111.24 Y94.651 E1.20788
G1 X111.711 Y95.79 E1.26937
G1 X111.975 Y96.534 E1.30875
G1 X112.163 Y97.301 E1.34815
G1 X112.235 Y97.745 E1.37059
G1 X112.398 Y98.974 E1.43245
G1 X112.462 Y99.762 E1.47189
G1 X112.447 Y100.551 E1.51126
G1 X112.358 Y101.343 E1.55102
G1 X112.233 Y102.268 E1.59759
G1 X112.089 Y103.044 E1.63696
G1 X111.866 Y103.802 E1.67638
G1 X111.712 Y104.207 E1.698
G1 X111.241 Y105.347 E1.75954
G1 X110.903 Y106.061 E1.79895
G1 X110.494 Y106.737 E1.83837
G1 X110.221 Y107.116 E1.86167
G1 X109.467 Y108.099 E1.92348
G1 X108.955 Y108.701 E1.96291
G1 X108.385 Y109.247 E2.00229
G1 X108.022 Y109.543 E2.02565
G1 X107.038 Y110.297 E2.0875
G1 X106.388 Y110.745 E2.12689
G1 X105.696 Y111.125 E2.16627
G1 X105.278 Y111.313 E2.18914
G1 X104.138 Y111.785 E2.2507
G1 X103.394 Y112.049 E2.29008
G1 X102.627 Y112.238 E2.32949
G1 X102.18 Y112.31 E2.35208
G1 X100.951 Y112.473 E2.41393
G1 X100.163 Y112.537 E2.45338
G1 X99.374 Y112.522 E2.49275
G1 X98.899 Y112.473 E2.51657
G1 X97.671 Y112.31 E2.57837
G1 X96.894 Y112.167 E2.61779
G1 X96.136 Y111.946 E2.65718
G1 X95.715 Y111.786 E2.67965
G1 X94.574 Y111.314 E2.74125
G1 X93.861 Y110.975 E2.78064
G1 X93.185 Y110.566 E2.82006
G1 X92.809 Y110.295 E2.84318
G1 X91.826 Y109.541 E2.90499
G1 X91.224 Y109.029 E2.94442
G1 X90.678 Y108.459 E2.98379
G1 X90.384 Y108.099 E3.00698
G1 X89.63 Y107.116 E3.06879
G1 X89.182 Y106.466 E3.10818
G1 X88.801 Y105.774 E3.14759
G1 X88.61 Y105.347 E3.17092
G1 X88.139 Y104.207 E3.23246
G1 X87.875 Y103.463 E3.27185
G1 X87.687 Y102.696 E3.31125
G1 X87.617 Y102.261 E3.33323
G1 X87.453 Y101.032 E3.39509
G1 X87.388 Y100.245 E3.43448
G1 X87.403 Y99.455 E3.4739
G1 X87.453 Y98.968 E3.49833
G1 X87.617 Y97.739 E3.56019
G1 X87.76 Y96.963 E3.59955
G1 X87.982 Y96.205 E3.63896
G1 X88.14 Y95.79 E3.66111
G1 X88.611 Y94.651 E3.7226
G1 X88.949 Y93.938 E3.76197
G1 X89.358 Y93.262 E3.80139
G1 X89.63 Y92.885 E3.82458
G1 X90.384 Y91.902 E3.88639
G1 X90.896 Y91.3 E3.92582
G0 F3600 X91.201 Y91.56
G1 F3000 X91.758 Y91.03 E3.96418
G1 X92.069 Y90.777 E3.98418
G1 X93.052 Y90.023 E4.04599
G1 X93.686 Y89.588 E4.08434
G1 X94.362 Y89.22 E4.12274
G1 X94.727 Y89.057 E4.14269
G1 X95.868 Y88.585 E4.20429
G1 X96.593 Y88.328 E4.24267
G1 X97.717 Y88.088 E4.30001
G1 X98.945 Y87.924 E4.36182
G1 X99.712 Y87.862 E4.40021
G1 X100.481 Y87.88 E4.43858
G1 X100.904 Y87.924 E4.4598
G1 X102.133 Y88.088 E4.52166
G1 X102.889 Y88.229 E4.56003
G1 X103.985 Y88.586 E4.61753
G1 X105.125 Y89.058 E4.67909
G1 X105.819 Y89.389 E4.71745
G1 X106.476 Y89.79 E4.75585
G1 X106.795 Y90.021 E4.7755
G1 X107.779 Y90.775 E4.83735
G1 X108.364 Y91.274 E4.87571
G1 X108.895 Y91.831 E4.9141
G1 X109.15 Y92.145 E4.93428
G1 X109.904 Y93.128 E4.99609
G1 X110.339 Y93.762 E5.03445
G1 X110.707 Y94.438 E5.07285
G1 X110.87 Y94.804 E5.09284
G1 X111.341 Y95.943 E5.15433
G1 X111.598 Y96.668 E5.19271
G1 X111.778 Y97.416 E5.23109
G1 X111.839 Y97.798 E5.25039
G1 X112.002 Y99.027 E5.31224
G1 X112.063 Y99.794 E5.35063
G1 X112.006 Y100.941 E5.40792
G1 X111.955 Y101.337 E5.42784
G1 X111.837 Y102.215 E5.47204
G1 X111.695 Y102.971 E5.51042
G1 X111.342 Y104.055 E5.56729
G1 X110.871 Y105.195 E5.62883
G1 X110.541 Y105.889 E5.66717
G1 X110.14 Y106.546 E5.70557
G1 X109.904 Y106.873 E5.72569
G1 X109.15 Y107.856 E5.7875
G1 X108.65 Y108.441 E5.82589
G1 X108.093 Y108.971 E5.86425
G1 X107.779 Y109.226 E5.88443
G1 X106.795 Y109.98 E5.94628
G1 X106.161 Y110.415 E5.98464
G1 X105.485 Y110.783 E6.02304
G1 X105.125 Y110.943 E6.04269
G1 X103.985 Y111.415 E6.10425
G1 X103.26 Y111.672 E6.14262
G1 X102.512 Y111.852 E6.18101
G1 X102.127 Y111.914 E6.20046
G1 X100.898 Y112.077 E6.26231
G1 X100.131 Y112.138 E6.3007
G1 X99.362 Y112.12 E6.33908
G1 X98.951 Y112.077 E6.35969
G1 X97.723 Y111.914 E6.42149
G1 X96.967 Y111.773 E6.45986
G1 X96.23 Y111.555 E6.49821
G1 X95.868 Y111.416 E6.51755
G1 X94.727 Y110.944 E6.57915
G1 X94.033 Y110.613 E6.61752
G1 X93.376 Y110.213 E6.65589
G1 X93.052 Y109.978 E6.67586
G1 X92.069 Y109.224 E6.73767
G1 X91.484 Y108.724 E6.77606
G1 X90.954 Y108.167 E6.81442
G1 X90.701 Y107.856 E6.83442
G1 X89.947 Y106.873 E6.89623
G1 X89.512 Y106.239 E6.93459
G1 X89.144 Y105.563 E6.97299
G1 X88.98 Y105.195 E6.99309
G1 X88.509 Y104.055 E7.05462
G1 X88.252 Y103.33 E7.093
G1 X88.013 Y102.208 E7.15023
G1 X87.849 Y100.979 E7.21209
G1 X87.787 Y100.212 E7.25048
G1 X87.805 Y99.443 E7.28886
G1 X87.849 Y99.021 E7.31003
G1 X88.013 Y97.792 E7.37188
G1 X88.154 Y97.036 E7.41025
G1 X88.51 Y95.943 E7.4676
G1 X88.981 Y94.804 E7.52909
G1 X89.311 Y94.11 E7.56743
G1 X89.712 Y93.453 E7.60583
G1 X89.947 Y93.128 E7.62584
G1 X90.701 Y92.145 E7.68765
G1 X91.201 Y91.56 E7.72604
G0 F3600 X91.505 Y91.82
G1 F3000 X92.313 Y91.095 E7.7802
G1 X93.296 Y90.341 E7.84201
G1 X93.913 Y89.918 E7.87933
G1 X94.88 Y89.427 E7.93344
G1 X96.021 Y88.955 E7.99504
G1 X96.727 Y88.706 E8.03239
G1 X97.77 Y88.485 E8.08558
G1 X98.998 Y88.321 E8.14739
G1 X99.744 Y88.261 E8.18473
G1 X100.851 Y88.321 E8.24004
G1 X102.08 Y88.485 E8.3019
G1 X102.815 Y88.623 E8.33921
G1 X103.832 Y88.955 E8.39258
G1 X104.972 Y89.427 E8.45414
G1 X105.647 Y89.75 E8.49147
G1 X106.552 Y90.339 E8.54534
G1 X107.536 Y91.093 E8.60719
G1 X108.104 Y91.579 E8.64448
G1 X108.832 Y92.389 E8.69882
G1 X109.586 Y93.372 E8.76063
G1 X110.009 Y93.989 E8.79795
G1 X110.501 Y94.957 E8.85212
G1 X110.972 Y96.096 E8.91361
G1 X111.22 Y96.802 E8.95095
G1 X111.442 Y97.851 E9.00444
G1 X111.605 Y99.08 E9.06629
G1 X111.664 Y99.825 E9.10358
G1 X111.609 Y100.89 E9.15678
G1 X111.559 Y101.283 E9.17654
G1 X111.441 Y102.161 E9.22074
G1 X111.302 Y102.896 E9.25806
G1 X110.973 Y103.902 E9.31087
G1 X110.502 Y105.042 E9.3724
G1 X110.179 Y105.717 E9.40974
G1 X109.586 Y106.629 E9.46401
G1 X108.832 Y107.612 E9.52582
G1 X108.346 Y108.181 E9.56315
G1 X107.536 Y108.908 E9.61745
G1 X106.552 Y109.662 E9.6793
G1 X105.934 Y110.085 E9.71666
G1 X104.972 Y110.574 E9.7705
G1 X103.832 Y111.046 E9.83206
G1 X103.126 Y111.294 E9.86939
G1 X102.074 Y111.517 E9.92304
G1 X100.845 Y111.68 E9.98489
G1 X100.1 Y111.739 E10.02218
G1 X99.004 Y111.68 E10.07694
G1 X97.776 Y111.517 E10.13874
G1 X97.041 Y111.379 E10.17605
G1 X96.021 Y111.046 E10.22958
G1 X94.88 Y110.574 E10.29118
G1 X94.205 Y110.252 E10.32849
G1 X93.296 Y109.66 E10.38261
G1 X92.313 Y108.906 E10.44442
G1 X91.744 Y108.42 E10.48175
G1 X91.019 Y107.612 E10.53591
G1 X90.265 Y106.629 E10.59772
G1 X89.842 Y106.012 E10.63504
G1 X89.349 Y105.042 E10.68933
G1 X88.878 Y103.902 E10.75087
G1 X88.63 Y103.196 E10.7882
G1 X88.41 Y102.155 E10.84128
G1 X88.246 Y100.926 E10.90314
G1 X88.186 Y100.18 E10.94048
G1 X88.246 Y99.074 E10.99574
G1 X88.41 Y97.845 E11.0576
G1 X88.548 Y97.11 E11.09491
G1 X88.879 Y96.096 E11.14812
G1 X89.35 Y94.957 E11.20962
G1 X89.673 Y94.282 E11.24695
G1 X90.265 Y93.372 E11.30111
G1 X91.019 Y92.389 E11.36292
G1 X91.505 Y91.82 E11.40025
G0 F3600 X91.809 Y92.081
G1 F3000 X92.556 Y91.412 E11.45028
G1 X93.539 Y90.658 E11.51209
G1 X94.139 Y90.248 E11.54834
G1 X95.033 Y89.796 E11.59832
G1 X96.174 Y89.324 E11.65992
G1 X96.86 Y89.084 E11.69618
G1 X97.823 Y88.881 E11.74528
G1 X99.051 Y88.717 E11.80709
G1 X99.775 Y88.661 E11.84332
G1 X100.798 Y88.717 E11.89443
G1 X102.027 Y88.881 E11.95629
G1 X102.741 Y89.017 E11.99255
G1 X103.679 Y89.325 E12.04181
G1 X104.819 Y89.797 E12.10337
G1 X105.474 Y90.111 E12.13961
G1 X106.308 Y90.656 E12.18931
G1 X107.292 Y91.41 E12.25116
G1 X107.844 Y91.883 E12.28742
G1 X108.515 Y92.632 E12.33759
G1 X109.269 Y93.615 E12.3994
G1 X109.679 Y94.215 E12.43566
G1 X110.131 Y95.11 E12.48568
G1 X110.602 Y96.249 E12.54717
G1 X110.842 Y96.934 E12.58338
G1 X111.046 Y97.903 E12.63279
G1 X111.209 Y99.132 E12.69464
G1 X111.264 Y99.856 E12.73086
G1 X111.212 Y100.839 E12.77997
G1 X111.162 Y101.23 E12.79964
G1 X111.044 Y102.108 E12.84384
G1 X110.908 Y102.822 E12.8801
G1 X110.603 Y103.749 E12.92879
G1 X110.132 Y104.889 E12.99033
G1 X109.818 Y105.544 E13.02656
G1 X109.269 Y106.386 E13.07671
G1 X108.515 Y107.369 E13.13852
G1 X108.042 Y107.92 E13.17475
G1 X107.292 Y108.591 E13.22496
G1 X106.308 Y109.345 E13.2868
G1 X105.708 Y109.754 E13.32303
G1 X104.819 Y110.204 E13.37274
G1 X103.679 Y110.676 E13.4343
G1 X102.993 Y110.917 E13.47057
G1 X102.022 Y111.121 E13.52007
G1 X100.793 Y111.284 E13.58193
G1 X100.069 Y111.339 E13.61815
G1 X99.057 Y111.284 E13.66871
G1 X97.829 Y111.121 E13.73052
G1 X97.115 Y110.986 E13.76677
G1 X96.174 Y110.677 E13.81618
G1 X95.033 Y110.205 E13.87779
G1 X94.378 Y109.891 E13.91402
G1 X93.539 Y109.343 E13.96402
G1 X92.556 Y108.589 E14.02583
G1 X92.005 Y108.116 E14.06206
G1 X91.336 Y107.369 E14.11209
G1 X90.582 Y106.386 E14.17389
G1 X90.172 Y105.786 E14.21015
G1 X89.719 Y104.889 E14.26028
G1 X89.248 Y103.749 E14.32182
G1 X89.008 Y103.064 E14.35803
G1 X88.806 Y102.102 E14.40707
G1 X88.642 Y100.873 E14.46893
G1 X88.586 Y100.149 E14.50516
G1 X88.642 Y99.127 E14.55623
G1 X88.806 Y97.898 E14.61808
G1 X88.942 Y97.184 E14.65435
G1 X89.249 Y96.249 E14.70344
G1 X89.72 Y95.11 E14.76494
G1 X90.034 Y94.455 E14.80117
G1 X90.582 Y93.615 E14.85121
G1 X91.336 Y92.632 E14.91302
G1 X91.809 Y92.081 E14.94925
G0 F3600 X92.113 Y92.342
G1 F3000 X92.8 Y91.73 E14.99515
G1 X93.783 Y90.976 E15.05696
G1 X94.365 Y90.579 E15.09211
G1 X95.186 Y90.166 E15.13796
G1 X96.327 Y89.694 E15.19956
G1 X96.992 Y89.462 E15.2347
G1 X97.876 Y89.278 E15.27975
G1 X99.104 Y89.114 E15.34155
G1 X99.806 Y89.06 E15.37668
G1 X100.745 Y89.113 E15.4236
G1 X101.974 Y89.277 E15.48546
G1 X102.665 Y89.41 E15.52057
G1 X103.526 Y89.695 E15.56582
G1 X104.666 Y90.167 E15.62737
G1 X105.3 Y90.472 E15.66247
G1 X106.065 Y90.974 E15.70812
G1 X107.049 Y91.728 E15.76997
G1 X107.583 Y92.187 E15.8051
G1 X108.197 Y92.876 E15.85114
G1 X108.951 Y93.859 E15.91295
G1 X109.348 Y94.441 E15.9481
G1 X109.761 Y95.263 E15.99399
G1 X110.232 Y96.402 E16.05549
G1 X110.464 Y97.067 E16.09062
G1 X110.649 Y97.956 E16.13593
G1 X110.812 Y99.185 E16.19778
G1 X110.865 Y99.887 E16.2329
G1 X110.816 Y100.788 E16.27792
G1 X110.766 Y101.177 E16.29749
G1 X110.648 Y102.055 E16.34168
G1 X110.515 Y102.746 E16.37679
G1 X110.233 Y103.596 E16.42147
G1 X109.762 Y104.736 E16.48301
G1 X109.457 Y105.371 E16.51815
G1 X108.951 Y106.142 E16.56416
G1 X108.197 Y107.125 E16.62597
G1 X107.738 Y107.659 E16.6611
G1 X107.049 Y108.273 E16.70714
G1 X106.065 Y109.027 E16.76899
G1 X105.483 Y109.423 E16.80411
G1 X104.666 Y109.834 E16.84974
G1 X103.526 Y110.306 E16.91129
G1 X102.861 Y110.538 E16.94643
G1 X101.969 Y110.724 E16.99189
G1 X100.74 Y110.887 E17.05374
G1 X100.038 Y110.94 E17.08887
G1 X99.109 Y110.887 E17.13529
G1 X97.881 Y110.724 E17.19709
G1 X97.19 Y110.592 E17.23219
G1 X96.327 Y110.307 E17.27753
G1 X95.186 Y109.835 E17.33913
G1 X94.552 Y109.53 E17.37423
G1 X93.783 Y109.025 E17.42013
G1 X92.8 Y108.271 E17.48194
G1 X92.266 Y107.812 E17.51707
G1 X91.654 Y107.125 E17.56297
G1 X90.9 Y106.142 E17.62478
G1 X90.503 Y105.56 E17.65993
G1 X90.089 Y104.736 E17.70594
G1 X89.618 Y103.596 E17.76747
G1 X89.386 Y102.932 E17.80256
G1 X89.202 Y102.049 E17.84756
G1 X89.038 Y100.82 E17.90942
G1 X88.985 Y100.118 E17.94455
G1 X89.038 Y99.18 E17.99142
G1 X89.202 Y97.951 E18.05328
G1 X89.335 Y97.26 E18.08838
G1 X89.619 Y96.402 E18.13347
G1 X90.09 Y95.263 E18.19496
G1 X90.395 Y94.629 E18.23006
G1 X90.9 Y93.859 E18.276
G1 X91.654 Y92.876 E18.33781
G1 X92.113 Y92.342 E18.37294
G0 F3600 X92.416 Y92.604
G1 F3000 X93.043 Y92.047 E18.41478
G1 X94.026 Y91.293 E18.47659
G1 X94.59 Y90.911 E18.51058
G1 X95.339 Y90.535 E18.55239
G1 X96.48 Y90.063 E18.61399
G1 X97.123 Y89.841 E18.64793
G1 X97.929 Y89.674 E18.68899
G1 X99.157 Y89.51 E18.7508
G1 X99.836 Y89.46 E18.78477
G1 X100.692 Y89.51 E18.82755
G1 X101.921 Y89.674 E18.88941
G1 X102.59 Y89.803 E18.9234
G1 X103.373 Y90.064 E18.96458
G1 X104.513 Y90.536 E19.02613
G1 X105.125 Y90.833 E19.06007
G1 X105.822 Y91.291 E19.10168
G1 X106.806 Y92.045 E19.16353
G1 X107.321 Y92.49 E19.19748
G1 X107.88 Y93.119 E19.23947
G1 X108.634 Y94.102 E19.30128
G1 X109.016 Y94.666 E19.33526
G1 X109.392 Y95.416 E19.37712
G1 X109.863 Y96.555 E19.43861
G1 X110.086 Y97.198 E19.47256
G1 X110.253 Y98.008 E19.51382
G1 X110.416 Y99.237 E19.57568
G1 X110.465 Y99.916 E19.60964
G1 X110.419 Y100.738 E19.65071
G1 X110.369 Y101.124 E19.67013
G1 X110.251 Y102.002 E19.71433
G1 X110.121 Y102.67 E19.74828
G1 X109.863 Y103.444 E19.78898
G1 X109.392 Y104.584 E19.85052
G1 X109.096 Y105.197 E19.88448
G1 X108.634 Y105.899 E19.92641
G1 X107.88 Y106.882 E19.98822
G1 X107.435 Y107.397 E20.02217
G1 X106.806 Y107.956 E20.06416
G1 X105.822 Y108.71 E20.126
G1 X105.258 Y109.092 E20.15999
G1 X104.513 Y109.465 E20.20156
G1 X103.373 Y109.937 E20.26311
G1 X102.729 Y110.16 E20.29711
G1 X101.917 Y110.328 E20.33848
G1 X100.688 Y110.491 E20.40033
G1 X100.009 Y110.54 E20.4343
G1 X99.162 Y110.491 E20.47663
G1 X97.934 Y110.328 E20.53843
G1 X97.265 Y110.199 E20.57242
G1 X96.48 Y109.938 E20.61369
G1 X95.339 Y109.466 E20.67529
G1 X94.726 Y109.169 E20.70928
G1 X94.026 Y108.708 E20.75109
G1 X93.043 Y107.954 E20.8129
G1 X92.528 Y107.509 E20.84686
G1 X91.971 Y106.882 E20.8887
G1 X91.217 Y105.899 E20.95051
G1 X90.835 Y105.335 E20.98449
G1 X90.459 Y104.584 E21.02639
G1 X89.988 Y103.444 E21.08793
G1 X89.765 Y102.8 E21.12193
G1 X89.599 Y101.996 E21.16289
G1 X89.435 Y100.767 E21.22475
G1 X89.385 Y100.088 E21.25872
G1 X89.435 Y99.233 E21.30144
G1 X89.599 Y98.004 E21.3633
G1 X89.728 Y97.335 E21.39729
G1 X89.988 Y96.555 E21.43831
G1 X90.459 Y95.416 E21.49981
G1 X90.756 Y94.803 E21.53379
G1 X91.217 Y94.102 E21.57565
G1 X91.971 Y93.119 E21.63745
G1 X92.416 Y92.604 E21.67141
G0 F3600 X92.719 Y92.866
G1 F3000 X93.286 Y92.364 E21.70919
G1 X94.269 Y91.61 E21.771
G1 X94.814 Y91.243 E21.80378
G1 X95.492 Y90.905 E21.84158
G1 X96.633 Y90.433 E21.90318
G1 X97.254 Y90.219 E21.93595
G1 X97.982 Y90.071 E21.97301
G1 X99.21 Y89.907 E22.03482
G1 X99.865 Y89.859 E22.06759
G1 X100.639 Y89.906 E22.10627
G1 X101.868 Y90.07 E22.16813
G1 X102.513 Y90.197 E22.20093
G1 X103.22 Y90.434 E22.23813
G1 X104.36 Y90.906 E22.29969
G1 X104.95 Y91.194 E22.33244
G1 X105.578 Y91.609 E22.37
G1 X106.562 Y92.363 E22.43184
G1 X107.059 Y92.793 E22.46463
G1 X107.563 Y93.362 E22.50255
G1 X108.317 Y94.345 E22.56436
G1 X108.684 Y94.89 E22.59714
G1 X109.022 Y95.568 E22.63494
G1 X109.493 Y96.707 E22.69643
G1 X109.707 Y97.329 E22.72925
G1 X109.856 Y98.061 E22.76651
G1 X110.019 Y99.29 E22.82837
G1 X110.066 Y99.945 E22.86113
G1 X110.022 Y100.687 E22.89821
G1 X109.973 Y101.07 E22.91748
G1 X109.855 Y101.948 E22.96167
G1 X109.728 Y102.593 E22.99447
G1 X109.494 Y103.291 E23.0312
G1 X109.023 Y104.431 E23.09274
G1 X108.735 Y105.022 E23.12554
G1 X108.317 Y105.656 E23.16342
