;FLAVOR:Marlin
;TIME:599
;Filament used: 0.535795m
;Layer height: 0.2
;MINX:84.545
;MINY:84.666
;MINZ:0.3
;MAXX:115.213
;MAXY:115.334
;MAXZ:15.7
;Generated with Cura_SteamEngine 4.13.1
M140 S60
M105
M190 S60
M104 S200
M105
M109 S200
M82 ;absolute extrusion mode
G21 ;metric values
 G90 ;absolute positioning
 M82 ;set extruder to absolute mode
 M107 ;start with the fan off
 G28 X0 Y0 ;move X/Y to min endstops
 G28 Z0 ;move Z to min endstops
 G1 Z15.0 F120 ;move the platform down 15mm
 G92 E0 ;zero the extruded length
 G1 F200 E6 ;extrude 6 mm of feed stock
 G92 E0 ;zero the extruded length again
 G1 F120 
 ;Put printing message on LCD screen
 M117 Printing...
G92 E0
G92 E0
G1 F1500 E-6.5
;LAYER_COUNT:78
;LAYER:0
M107
G0 F3600 X88.875 Y89.32 Z0.3
;TYPE:SKIRT
G1 F1500 E0
G1 F3000 X89.445 Y88.774 E0.03938
G1 X89.803 Y88.482 E0.06243
G1 X91.365 Y87.284 E0.16064
G1 X92.015 Y86.836 E0.20002
G1 X92.707 Y86.455 E0.23943
G1 X93.123 Y86.268 E0.26219
G1 X94.938 Y85.515 E0.36022
G1 X95.682 Y85.25 E0.39962
G1 X96.449 Y85.061 E0.43903
G1 X96.909 Y84.987 E0.46228
G1 X98.861 Y84.73 E0.56051
G1 X99.648 Y84.666 E0.5999
G1 X100.437 Y84.683 E0.63927
G1 X100.897 Y84.73 E0.66234
G1 X102.85 Y84.987 E0.76062
G1 X103.626 Y85.129 E0.79997
G1 X104.385 Y85.35 E0.83941
G1 X104.821 Y85.515 E0.86267
G1 X106.636 Y86.268 E0.9607
G1 X107.349 Y86.608 E1.00011
G1 X108.024 Y87.017 E1.03949
G1 X108.394 Y87.284 E1.06225
G1 X109.956 Y88.482 E1.16046
G1 X110.557 Y88.993 E1.19982
G1 X111.104 Y89.563 E1.23923
G1 X111.396 Y89.922 E1.26232
G1 X112.595 Y91.484 E1.36056
G1 X113.044 Y92.134 E1.39997
G1 X113.424 Y92.825 E1.43932
G1 X113.615 Y93.249 E1.46252
G1 X114.366 Y95.063 E1.56047
G1 X114.631 Y95.807 E1.59987
G1 X114.819 Y96.574 E1.63927
G1 X114.892 Y97.029 E1.66226
G1 X115.149 Y98.982 E1.76053
G1 X115.213 Y99.769 E1.79993
G1 X115.196 Y100.559 E1.83935
G1 X115.149 Y101.018 E1.86237
G1 X114.892 Y102.971 E1.96065
G1 X114.75 Y103.747 E2
G1 X114.529 Y104.506 E2.03944
G1 X114.366 Y104.937 E2.06243
G1 X113.615 Y106.751 E2.16038
G1 X113.276 Y107.464 E2.19977
G1 X112.867 Y108.14 E2.23919
G1 X112.595 Y108.516 E2.26234
G1 X111.396 Y110.078 E2.36058
G1 X110.884 Y110.68 E2.40001
G1 X110.314 Y111.226 E2.43939
G1 X109.956 Y111.518 E2.46243
G1 X108.394 Y112.716 E2.56064
G1 X107.744 Y113.164 E2.60003
G1 X107.052 Y113.545 E2.63944
G1 X106.636 Y113.732 E2.66219
G1 X104.821 Y114.485 E2.76023
G1 X104.077 Y114.75 E2.79963
G1 X103.31 Y114.939 E2.83904
G1 X102.85 Y115.013 E2.86229
G1 X100.897 Y115.27 E2.96056
G1 X100.11 Y115.334 E2.99996
G1 X99.32 Y115.317 E3.03938
G1 X98.861 Y115.27 E3.0624
G1 X96.909 Y115.013 E3.16062
G1 X96.132 Y114.871 E3.20003
G1 X95.374 Y114.65 E3.23942
G1 X94.938 Y114.485 E3.26268
G1 X93.123 Y113.732 E3.36071
G1 X92.41 Y113.392 E3.40012
G1 X91.735 Y112.983 E3.4395
G1 X91.365 Y112.716 E3.46226
G1 X89.803 Y111.518 E3.56047
G1 X89.202 Y111.007 E3.59983
G1 X88.655 Y110.437 E3.63924
G1 X88.363 Y110.078 E3.66233
G1 X87.164 Y108.516 E3.76057
G1 X86.715 Y107.866 E3.79998
G1 X86.335 Y107.175 E3.83933
G1 X86.146 Y106.754 E3.86235
G1 X85.394 Y104.94 E3.96032
G1 X85.129 Y104.196 E3.99972
G1 X84.94 Y103.429 E4.03913
G1 X84.866 Y102.971 E4.06228
G1 X84.609 Y101.018 E4.16055
G1 X84.545 Y100.231 E4.19995
G1 X84.562 Y99.441 E4.23937
G1 X84.609 Y98.982 E4.26239
G1 X84.866 Y97.029 E4.36066
G1 X85.008 Y96.253 E4.40002
G1 X85.229 Y95.494 E4.43946
G1 X85.394 Y95.06 E4.46262
G1 X86.146 Y93.246 E4.56059
G1 X86.485 Y92.533 E4.59998
G1 X86.894 Y91.857 E4.6394
G1 X87.164 Y91.484 E4.66237
G1 X88.363 Y89.922 E4.76061
G1 X88.875 Y89.32 E4.80004
G0 F3600 X89.179 Y89.58
G1 F3000 X89.737 Y89.05 E4.83843
G1 X90.047 Y88.799 E4.85833
G1 X91.609 Y87.601 E4.95654
G1 X92.242 Y87.165 E4.99489
G1 X92.918 Y86.798 E5.03327
G1 X93.276 Y86.638 E5.05283
G1 X95.091 Y85.885 E5.15086
G1 X95.816 Y85.627 E5.18926
G1 X96.564 Y85.447 E5.22764
G1 X96.961 Y85.383 E5.2477
G1 X98.913 Y85.126 E5.34593
G1 X99.68 Y85.066 E5.38431
G1 X100.449 Y85.085 E5.42269
G1 X100.844 Y85.126 E5.4425
G1 X102.797 Y85.383 E5.54078
G1 X103.554 Y85.523 E5.57918
G1 X104.292 Y85.741 E5.61757
G1 X104.668 Y85.885 E5.63766
G1 X106.483 Y86.638 E5.7357
G1 X107.177 Y86.969 E5.77406
G1 X107.833 Y87.371 E5.81244
G1 X108.15 Y87.601 E5.83198
G1 X109.712 Y88.799 E5.93019
G1 X110.298 Y89.298 E5.96859
G1 X110.828 Y89.856 E6.00698
G1 X111.079 Y90.165 E6.02684
G1 X112.278 Y91.727 E6.12508
G1 X112.714 Y92.361 E6.16347
G1 X113.082 Y93.036 E6.20183
G1 X113.245 Y93.402 E6.22182
G1 X113.996 Y95.216 E6.31977
G1 X114.253 Y95.941 E6.35814
G1 X114.433 Y96.689 E6.39653
G1 X114.496 Y97.082 E6.41638
G1 X114.753 Y99.035 E6.51466
G1 X114.813 Y99.801 E6.55299
G1 X114.794 Y100.57 E6.59137
G1 X114.753 Y100.965 E6.61118
G1 X114.496 Y102.918 E6.70946
G1 X114.356 Y103.675 E6.74786
G1 X114.138 Y104.413 E6.78626
G1 X113.996 Y104.784 E6.80607
G1 X113.245 Y106.598 E6.90402
G1 X112.914 Y107.292 E6.94238
G1 X112.513 Y107.948 E6.98074
G1 X112.278 Y108.273 E7.00075
G1 X111.079 Y109.835 E7.09899
G1 X110.58 Y110.42 E7.13735
G1 X110.022 Y110.95 E7.17575
G1 X109.712 Y111.201 E7.19565
G1 X108.15 Y112.399 E7.29386
G1 X107.517 Y112.835 E7.3322
G1 X106.841 Y113.202 E7.37058
G1 X106.483 Y113.362 E7.39014
G1 X104.668 Y114.115 E7.48818
G1 X103.943 Y114.373 E7.52657
G1 X103.195 Y114.553 E7.56495
G1 X102.797 Y114.617 E7.58506
G1 X100.844 Y114.874 E7.68334
G1 X100.078 Y114.934 E7.72167
G1 X99.309 Y114.915 E7.76005
G1 X98.913 Y114.874 E7.77991
G1 X96.961 Y114.617 E7.87814
G1 X96.205 Y114.477 E7.9165
G1 X95.467 Y114.259 E7.95489
G1 X95.091 Y114.115 E7.97498
G1 X93.276 Y113.362 E8.07301
G1 X92.582 Y113.031 E8.11137
G1 X91.926 Y112.629 E8.14976
G1 X91.609 Y112.399 E8.16929
G1 X90.047 Y111.201 E8.2675
G1 X89.461 Y110.702 E8.3059
G1 X88.931 Y110.144 E8.3443
G1 X88.68 Y109.835 E8.36416
G1 X87.481 Y108.273 E8.4624
G1 X87.045 Y107.639 E8.50079
G1 X86.677 Y106.964 E8.53914
G1 X86.515 Y106.601 E8.55897
G1 X85.763 Y104.787 E8.65694
G1 X85.506 Y104.062 E8.69532
G1 X85.325 Y103.314 E8.73371
G1 X85.262 Y102.918 E8.75372
G1 X85.005 Y100.965 E8.85199
G1 X84.945 Y100.199 E8.89033
G1 X84.964 Y99.43 E8.9287
G1 X85.005 Y99.035 E8.94852
G1 X85.262 Y97.082 E9.04679
G1 X85.402 Y96.325 E9.0852
G1 X85.62 Y95.587 E9.12359
G1 X85.763 Y95.213 E9.14357
G1 X86.515 Y93.399 E9.24154
G1 X86.846 Y92.705 E9.2799
G1 X87.248 Y92.049 E9.31828
G1 X87.481 Y91.727 E9.33811
G1 X88.68 Y90.165 E9.43635
G1 X89.179 Y89.58 E9.47471
G0 F3600 X89.484 Y89.84
G1 F3000 X90.29 Y89.117 E9.52873
G1 X91.852 Y87.919 E9.62694
G1 X92.469 Y87.496 E9.66426
G1 X93.43 Y87.007 E9.71806
G1 X95.245 Y86.254 E9.81609
G1 X95.95 Y86.005 E9.85339
G1 X97.013 Y85.78 E9.9076
G1 X98.965 Y85.523 E10.00583
G1 X99.711 Y85.465 E10.04316
G1 X100.792 Y85.523 E10.09717
G1 X102.745 Y85.78 E10.19544
G1 X103.481 Y85.917 E10.23279
G1 X104.514 Y86.254 E10.287
G1 X106.329 Y87.007 E10.38504
G1 X107.004 Y87.331 E10.42239
G1 X107.907 Y87.919 E10.47615
G1 X109.469 Y89.117 E10.57436
G1 X110.037 Y89.603 E10.61166
G1 X110.762 Y90.409 E10.66574
G1 X111.961 Y91.971 E10.76398
G1 X112.384 Y92.588 E10.8013
G1 X112.876 Y93.555 E10.85543
G1 X113.627 Y95.369 E10.95338
G1 X113.875 Y96.075 E10.99072
G1 X114.099 Y97.134 E11.04472
G1 X114.356 Y99.087 E11.14299
G1 X114.414 Y99.833 E11.18032
G1 X114.356 Y100.913 E11.23428
G1 X114.099 Y102.866 E11.33256
G1 X113.962 Y103.602 E11.36991
G1 X113.627 Y104.631 E11.4239
G1 X112.876 Y106.445 E11.52185
G1 X112.553 Y107.12 E11.55918
G1 X111.961 Y108.029 E11.6133
G1 X110.762 Y109.591 E11.71154
G1 X110.275 Y110.16 E11.74891
G1 X109.469 Y110.883 E11.80292
G1 X107.907 Y112.081 E11.90113
G1 X107.29 Y112.504 E11.93846
G1 X106.329 Y112.993 E11.99225
G1 X104.514 Y113.746 E12.09028
G1 X103.809 Y113.995 E12.12759
G1 X102.745 Y114.22 E12.18184
G1 X100.792 Y114.477 E12.28012
G1 X100.046 Y114.535 E12.31745
G1 X98.965 Y114.477 E12.37146
G1 X97.013 Y114.22 E12.46968
G1 X96.278 Y114.083 E12.50699
G1 X95.245 Y113.746 E12.5612
G1 X93.43 Y112.993 E12.65923
G1 X92.755 Y112.669 E12.69658
G1 X91.852 Y112.081 E12.75034
G1 X90.29 Y110.883 E12.84855
G1 X89.722 Y110.397 E12.88585
G1 X88.997 Y109.591 E12.93993
G1 X87.798 Y108.029 E13.03817
G1 X87.375 Y107.412 E13.0755
G1 X86.885 Y106.448 E13.12945
G1 X86.133 Y104.634 E13.22742
G1 X85.883 Y103.928 E13.26478
G1 X85.659 Y102.866 E13.31893
G1 X85.402 Y100.913 E13.41721
G1 X85.344 Y100.167 E13.45454
G1 X85.402 Y99.087 E13.5085
G1 X85.659 Y97.134 E13.60677
G1 X85.796 Y96.398 E13.64412
G1 X86.133 Y95.366 E13.69828
G1 X86.885 Y93.552 E13.79625
G1 X87.208 Y92.878 E13.83354
G1 X87.798 Y91.971 E13.88752
G1 X88.997 Y90.409 E13.98576
G1 X89.484 Y89.84 E14.02313
G0 F3600 X89.788 Y90.101
G1 F3000 X90.533 Y89.434 E14.07302
G1 X92.095 Y88.236 E14.17123
G1 X92.695 Y87.826 E14.20748
G1 X93.583 Y87.377 E14.25712
G1 X95.398 Y86.624 E14.35516
G1 X96.083 Y86.383 E14.39139
G1 X97.065 Y86.176 E14.44146
G1 X99.017 Y85.919 E14.53968
G1 X99.742 Y85.864 E14.57596
G1 X100.74 Y85.919 E14.62582
G1 X102.693 Y86.176 E14.7241
G1 X103.407 Y86.311 E14.76035
G1 X104.361 Y86.624 E14.81044
G1 X106.176 Y87.377 E14.90848
G1 X106.831 Y87.692 E14.94474
G1 X107.664 Y88.236 E14.99437
G1 X109.226 Y89.434 E15.09258
G1 X109.777 Y89.907 E15.12881
G1 X110.444 Y90.652 E15.1787
G1 X111.643 Y92.214 E15.27694
G1 X112.053 Y92.814 E15.31319
G1 X112.506 Y93.708 E15.3632
G1 X113.257 Y95.522 E15.46115
G1 X113.498 Y96.208 E15.49742
G1 X113.703 Y97.186 E15.54727
G1 X113.96 Y99.139 E15.64555
G1 X114.015 Y99.863 E15.68177
G1 X113.96 Y100.861 E15.73164
G1 X113.703 Y102.814 E15.82992
G1 X113.568 Y103.528 E15.86617
G1 X113.257 Y104.478 E15.91604
G1 X112.506 Y106.292 E16.01399
G1 X112.192 Y106.946 E16.05018
G1 X111.643 Y107.786 E16.10025
G1 X110.444 Y109.348 E16.19849
G1 X109.971 Y109.899 E16.23472
G1 X109.226 Y110.566 E16.2846
G1 X107.664 Y111.764 E16.38281
G1 X107.064 Y112.174 E16.41907
G1 X106.176 Y112.623 E16.46871
G1 X104.361 Y113.376 E16.56675
G1 X103.676 Y113.617 E16.60298
G1 X102.693 Y113.824 E16.65309
G1 X100.74 Y114.081 E16.75137
G1 X100.016 Y114.136 E16.78759
G1 X99.017 Y114.081 E16.83751
G1 X97.065 Y113.824 E16.93574
G1 X96.352 Y113.689 E16.97194
G1 X95.398 Y113.376 E17.02203
G1 X93.583 Y112.623 E17.12007
G1 X92.928 Y112.308 E17.15633
G1 X92.095 Y111.764 E17.20596
G1 X90.533 Y110.566 E17.30417
G1 X89.982 Y110.093 E17.3404
G1 X89.315 Y109.348 E17.39029
G1 X88.116 Y107.786 E17.48853
G1 X87.706 Y107.186 E17.52478
G1 X87.254 Y106.294 E17.57467
G1 X86.502 Y104.48 E17.67264
G1 X86.261 Y103.795 E17.70887
G1 X86.055 Y102.814 E17.75888
G1 X85.798 Y100.861 E17.85716
G1 X85.743 Y100.137 E17.89338
G1 X85.798 Y99.139 E17.94325
G1 X86.055 Y97.186 E18.04152
G1 X86.19 Y96.472 E18.07777
G1 X86.502 Y95.52 E18.12776
G1 X87.254 Y93.706 E18.22572
G1 X87.569 Y93.051 E18.26199
G1 X88.116 Y92.214 E18.31187
G1 X89.315 Y90.652 E18.41011
G1 X89.788 Y90.101 E18.44634
G0 F3600 X90.092 Y90.363
G1 F3000 X90.777 Y89.751 E18.49217
G1 X92.339 Y88.553 E18.59038
G1 X92.921 Y88.157 E18.6255
G1 X93.736 Y87.746 E18.67103
G1 X95.551 Y86.993 E18.76907
G1 X96.216 Y86.761 E18.80421
G1 X97.118 Y86.573 E18.85017
G1 X99.07 Y86.316 E18.9484
G1 X99.772 Y86.264 E18.98352
G1 X100.688 Y86.316 E19.02929
G1 X102.641 Y86.573 E19.12757
G1 X103.333 Y86.704 E19.16271
G1 X104.208 Y86.993 E19.20868
G1 X106.023 Y87.746 E19.30671
G1 X106.657 Y88.053 E19.34186
G1 X107.42 Y88.553 E19.38737
G1 X108.982 Y89.751 E19.48558
G1 X109.516 Y90.211 E19.52074
G1 X110.127 Y90.896 E19.56654
G1 X111.326 Y92.458 E19.66478
G1 X111.722 Y93.04 E19.6999
G1 X112.136 Y93.861 E19.74577
G1 X112.887 Y95.675 E19.84372
G1 X113.119 Y96.34 E19.87886
G1 X113.306 Y97.238 E19.92462
G1 X113.563 Y99.191 E20.02289
G1 X113.615 Y99.893 E20.05801
G1 X113.563 Y100.809 E20.10379
G1 X113.306 Y102.762 E20.20206
G1 X113.175 Y103.454 E20.2372
G1 X112.887 Y104.325 E20.28297
G1 X112.136 Y106.139 E20.38092
G1 X111.831 Y106.773 E20.41602
G1 X111.326 Y107.542 E20.46192
G1 X110.127 Y109.104 E20.56016
G1 X109.667 Y109.637 E20.59528
G1 X108.982 Y110.249 E20.64111
G1 X107.42 Y111.447 E20.73932
G1 X106.838 Y111.843 E20.77444
G1 X106.023 Y112.254 E20.81998
G1 X104.208 Y113.007 E20.91801
G1 X103.543 Y113.239 E20.95315
G1 X102.641 Y113.427 E20.99912
G1 X100.688 Y113.684 E21.09739
G1 X99.986 Y113.736 E21.13251
G1 X99.07 Y113.684 E21.17828
G1 X97.118 Y113.427 E21.27651
G1 X96.426 Y113.296 E21.31165
G1 X95.551 Y113.007 E21.35762
G1 X93.736 Y112.254 E21.45566
G1 X93.102 Y111.947 E21.4908
G1 X92.339 Y111.447 E21.53631
G1 X90.777 Y110.249 E21.63452
G1 X90.243 Y109.789 E21.66968
G1 X89.632 Y109.104 E21.71548
G1 X88.433 Y107.542 E21.81372
G1 X88.037 Y106.96 E21.84884
G1 X87.624 Y106.141 E21.8946
G1 X86.872 Y104.327 E21.99257
G1 X86.639 Y103.663 E22.02768
G1 X86.452 Y102.762 E22.07358
G1 X86.195 Y100.809 E22.17186
G1 X86.143 Y100.107 E22.20698
G1 X86.195 Y99.191 E22.25275
G1 X86.452 Y97.238 E22.35103
G1 X86.583 Y96.546 E22.38616
G1 X86.872 Y95.673 E22.43204
G1 X87.624 Y93.859 E22.53001
G1 X87.93 Y93.225 E22.56513
G1 X88.433 Y92.458 E22.6109
G1 X89.632 Y90.896 E22.70913
G1 X90.092 Y90.363 E22.74426
G0 F3600 X90.395 Y90.625
G1 F3000 X91.02 Y90.069 E22.78599
G1 X92.582 Y88.871 E22.8842
G1 X93.146 Y88.489 E22.91819
G1 X93.889 Y88.116 E22.95967
G1 X95.704 Y87.363 E23.0577
G1 X96.348 Y87.139 E23.09172
G1 X97.17 Y86.97 E23.13359
G1 X99.122 Y86.713 E23.23181
G1 X99.801 Y86.664 E23.26577
G1 X100.636 Y86.713 E23.3075
G1 X102.589 Y86.97 E23.40578
G1 X103.257 Y87.098 E23.43971
G1 X104.055 Y87.363 E23.48166
G1 X105.87 Y88.116 E23.5797
G1 X106.482 Y88.413 E23.61364
G1 X107.177 Y88.871 E23.65516
G1 X108.739 Y90.069 E23.75337
G1 X109.254 Y90.514 E23.78733
G1 X109.81 Y91.139 E23.82906
G1 X111.009 Y92.701 E23.9273
G1 X111.391 Y93.265 E23.96129
G1 X111.767 Y94.014 E24.0031
G1 X112.518 Y95.828 E24.10105
G1 X112.741 Y96.472 E24.13505
G1 X112.909 Y97.29 E24.17671
G1 X113.166 Y99.243 E24.27499
G1 X113.215 Y99.922 E24.30895
G1 X113.166 Y100.757 E24.35068
G1 X112.909 Y102.71 E24.44896
G1 X112.781 Y103.378 E24.48289
G1 X112.518 Y104.172 E24.52462
G1 X111.767 Y105.986 E24.62257
G1 X111.47 Y106.598 E24.65651
G1 X111.009 Y107.299 E24.69836
G1 X109.81 Y108.861 E24.7966
G1 X109.364 Y109.375 E24.83056
G1 X108.739 Y109.931 E24.87229
G1 X107.177 Y111.129 E24.9705
G1 X106.613 Y111.511 E25.00448
G1 X105.87 Y111.884 E25.04596
G1 X104.055 Y112.637 E25.144
G1 X103.411 Y112.861 E25.17801
G1 X102.589 Y113.03 E25.21988
G1 X100.636 Y113.287 E25.31816
G1 X99.957 Y113.336 E25.35212
G1 X99.122 Y113.287 E25.39385
G1 X97.17 Y113.03 E25.49208
G1 X96.501 Y112.902 E25.52606
G1 X95.704 Y112.637 E25.56796
G1 X93.889 Y111.884 E25.666
G1 X93.277 Y111.587 E25.69993
G1 X92.582 Y111.129 E25.74146
G1 X91.02 Y109.931 E25.83967
G1 X90.505 Y109.486 E25.87363
G1 X89.949 Y108.861 E25.91536
G1 X88.75 Y107.299 E26.0136
G1 X88.368 Y106.735 E26.04758
G1 X87.993 Y105.988 E26.08928
G1 X87.241 Y104.174 E26.18725
G1 X87.018 Y103.531 E26.22121
G1 X86.849 Y102.71 E26.26303
G1 X86.592 Y100.757 E26.3613
G1 X86.543 Y100.078 E26.39527
G1 X86.592 Y99.243 E26.437
G1 X86.849 Y97.29 E26.53527
G1 X86.977 Y96.622 E26.5692
G1 X87.241 Y95.826 E26.61104
G1 X87.993 Y94.012 E26.70901
G1 X88.29 Y93.399 E26.743
G1 X88.75 Y92.701 E26.7847
G1 X89.949 Y91.139 E26.88294
G1 X90.395 Y90.625 E26.91689
G0 F3600 X90.697 Y90.887
G1 F3000 X91.264 Y90.386 E26.95464
G1 X92.826 Y89.188 E27.05285
G1 X93.37 Y88.821 E27.08559
G1 X94.043 Y88.485 E27.12312
G1 X95.858 Y87.732 E27.22115
G1 X96.479 Y87.518 E27.25392
G1 X97.222 Y87.366 E27.29176
G1 X99.174 Y87.109 E27.38998
G1 X99.829 Y87.063 E27.42274
G1 X100.584 Y87.109 E27.46048
G1 X102.537 Y87.366 E27.55876
G1 X103.181 Y87.491 E27.59148
G1 X103.901 Y87.732 E27.62936
G1 X105.716 Y88.485 E27.7274
G1 X106.307 Y88.773 E27.7602
G1 X106.933 Y89.188 E27.79767
G1 X108.495 Y90.386 E27.89588
G1 X108.991 Y90.817 E27.92866
G1 X109.493 Y91.383 E27.96641
G1 X110.692 Y92.945 E28.06465
G1 X111.059 Y93.489 E28.09738
G1 X111.397 Y94.167 E28.13518
G1 X112.148 Y95.981 E28.23313
G1 X112.362 Y96.603 E28.26595
G1 X112.513 Y97.342 E28.30358
G1 X112.77 Y99.295 E28.40185
G1 X112.816 Y99.951 E28.43466
G1 X112.77 Y100.705 E28.47235
G1 X112.513 Y102.658 E28.57062
G1 X112.388 Y103.302 E28.60335
G1 X112.148 Y104.019 E28.64108
G1 X111.397 Y105.833 E28.73903
