;FLAVOR:Marlin
;TIME:3547
;Filament used: 3.49984m
;Layer height: 0.2
;MINX:72.141
;MINY:73.442
;MINZ:0.3
;MAXX:128.065
;MAXY:128.499
;MAXZ:26.1
;Generated with Cura_SteamEngine 4.13.1
M140 S60
M105
M190 S60
M104 S200
M105
M109 S200
M82 ;absolute extrusion mode
G21 ;metric values
 G90 ;absolute positioning
 M82 ;set extruder to absolute mode
 M107 ;start with the fan off
 G28 X0 Y0 ;move X/Y to min endstops
 G28 Z0 ;move Z to min endstops
 G1 Z15.0 F120 ;move the platform down 15mm
 G92 E0 ;zero the extruded length
 G1 F200 E6 ;extrude 6 mm of feed stock
 G92 E0 ;zero the extruded length again
 G1 F120 
 ;Put printing message on LCD screen
 M117 Printing...
G92 E0
G92 E0
G1 F1500 E-6.5
;LAYER_COUNT:130
;LAYER:0
M107
G0 F3600 X74.564 Y75.591 Z0.3
;TYPE:SKIRT
G1 F1500 E0
G1 F3000 X75.163 Y75.076 E0.03941
G1 X75.811 Y74.625 E0.0788
G1 X76.502 Y74.241 E0.11824
G1 X77.227 Y73.929 E0.15762
G1 X77.98 Y73.692 E0.197
G1 X78.754 Y73.533 E0.23642
G1 X79.539 Y73.452 E0.27579
G1 X79.941 Y73.442 E0.29586
G1 X120.046 Y73.442 E2.2967
G1 X120.835 Y73.482 E2.33612
G1 X121.615 Y73.601 E2.37548
G1 X122.38 Y73.799 E2.4149
G1 X123.12 Y74.073 E2.45427
G1 X123.829 Y74.421 E2.49368
G1 X124.5 Y74.839 E2.53312
G1 X125.124 Y75.322 E2.57248
G1 X125.697 Y75.865 E2.61187
G1 X126.212 Y76.464 E2.65128
G1 X126.663 Y77.112 E2.69067
G1 X127.047 Y77.803 E2.73011
G1 X127.359 Y78.528 E2.76948
G1 X127.596 Y79.281 E2.80887
G1 X127.755 Y80.055 E2.84829
G1 X127.836 Y80.84 E2.88766
G1 X127.846 Y81.242 E2.90772
G1 X127.846 Y110.12 E4.34845
G1 X127.974 Y110.743 E4.38018
G1 X128.055 Y111.528 E4.41956
G1 X128.065 Y111.93 E4.43962
G1 X128.065 Y120.699 E4.87711
G1 X128.025 Y121.488 E4.91652
G1 X127.906 Y122.268 E4.95588
G1 X127.708 Y123.033 E4.99531
G1 X127.434 Y123.773 E5.03468
G1 X127.086 Y124.482 E5.07408
G1 X126.668 Y125.153 E5.11352
G1 X126.185 Y125.777 E5.15289
G1 X125.642 Y126.35 E5.19227
G1 X125.043 Y126.865 E5.23168
G1 X124.395 Y127.316 E5.27107
G1 X123.704 Y127.7 E5.31051
G1 X122.979 Y128.012 E5.34989
G1 X122.226 Y128.249 E5.38927
G1 X121.452 Y128.408 E5.42869
G1 X120.667 Y128.489 E5.46807
G1 X120.265 Y128.499 E5.48813
G1 X108.396 Y128.499 E6.08027
G1 X107.607 Y128.459 E6.11969
G1 X106.827 Y128.34 E6.15905
G1 X106.062 Y128.142 E6.19848
G1 X105.322 Y127.868 E6.23784
G1 X104.613 Y127.52 E6.27725
G1 X103.942 Y127.102 E6.31669
G1 X103.318 Y126.619 E6.35606
G1 X102.745 Y126.076 E6.39544
G1 X102.23 Y125.477 E6.43485
G1 X101.779 Y124.829 E6.47424
G1 X101.395 Y124.138 E6.51368
G1 X101.083 Y123.413 E6.55306
G1 X100.846 Y122.66 E6.59244
G1 X100.687 Y121.886 E6.63186
G1 X100.606 Y121.101 E6.67123
G1 X100.596 Y120.699 E6.6913
G1 X100.596 Y111.93 E7.12878
G1 X100.636 Y111.141 E7.1682
G1 X100.755 Y110.361 E7.20756
G1 X100.953 Y109.596 E7.24699
G1 X101.227 Y108.856 E7.28635
G1 X101.575 Y108.147 E7.32576
G1 X101.993 Y107.476 E7.3652
G1 X102.476 Y106.852 E7.40457
G1 X103.019 Y106.279 E7.44395
G1 X103.618 Y105.764 E7.48336
G1 X104.224 Y105.342 E7.5202
G1 X104.224 Y97.81 E7.89598
G1 X95.762 Y97.81 E8.31815
G1 X95.762 Y105.149 E8.68429
G1 X96.368 Y105.527 E8.71992
G1 X96.992 Y106.01 E8.75929
G1 X97.565 Y106.553 E8.79868
G1 X98.08 Y107.152 E8.83809
G1 X98.531 Y107.8 E8.87747
G1 X98.915 Y108.491 E8.91691
G1 X99.227 Y109.216 E8.95629
G1 X99.464 Y109.969 E8.99568
G1 X99.623 Y110.743 E9.0351
G1 X99.704 Y111.528 E9.07447
G1 X99.714 Y111.931 E9.09458
G1 X99.713 Y120.7 E9.53207
G1 X99.673 Y121.489 E9.57148
G1 X99.553 Y122.269 E9.61085
G1 X99.355 Y123.034 E9.65028
G1 X99.081 Y123.774 E9.68965
G1 X98.734 Y124.483 E9.72903
G1 X98.316 Y125.153 E9.76843
G1 X97.833 Y125.778 E9.80783
G1 X97.289 Y126.351 E9.84725
G1 X96.69 Y126.865 E9.88663
G1 X96.042 Y127.317 E9.92605
G1 X95.352 Y127.7 E9.96542
G1 X94.626 Y128.012 E10.00484
G1 X93.873 Y128.249 E10.04423
G1 X93.099 Y128.408 E10.08365
G1 X92.314 Y128.489 E10.12302
G1 X91.913 Y128.499 E10.14303
G1 X79.941 Y128.499 E10.74032
G1 X79.152 Y128.459 E10.77973
G1 X78.372 Y128.34 E10.8191
G1 X77.607 Y128.142 E10.85852
G1 X76.867 Y127.868 E10.89789
G1 X76.158 Y127.52 E10.93729
G1 X75.487 Y127.102 E10.97673
G1 X74.863 Y126.619 E11.0161
G1 X74.29 Y126.076 E11.05548
G1 X73.775 Y125.477 E11.09489
G1 X73.324 Y124.829 E11.13428
G1 X72.94 Y124.138 E11.17372
G1 X72.628 Y123.413 E11.2131
G1 X72.391 Y122.66 E11.25248
G1 X72.232 Y121.886 E11.29191
G1 X72.151 Y121.101 E11.33128
G1 X72.141 Y120.699 E11.35134
G1 X72.141 Y81.242 E13.31986
G1 X72.181 Y80.453 E13.35927
G1 X72.3 Y79.673 E13.39864
G1 X72.498 Y78.908 E13.43806
G1 X72.772 Y78.168 E13.47743
G1 X73.12 Y77.459 E13.51683
G1 X73.538 Y76.788 E13.55627
G1 X74.021 Y76.164 E13.59564
G1 X74.564 Y75.591 E13.63502
G0 F3600 X74.957 Y75.772
G1 F3000 X75.552 Y75.284 E13.67341
G1 X76.194 Y74.861 E13.71177
G1 X76.877 Y74.506 E13.75017
G1 X77.592 Y74.225 E13.7885
G1 X78.334 Y74.019 E13.82692
G1 X79.092 Y73.891 E13.86527
G1 X79.941 Y73.842 E13.9077
G1 X120.046 Y73.842 E15.90855
G1 X120.814 Y73.882 E15.94691
G1 X121.574 Y74.001 E15.98529
G1 X122.317 Y74.199 E16.02366
G1 X123.036 Y74.473 E16.06204
G1 X123.722 Y74.82 E16.1004
G1 X124.369 Y75.236 E16.13877
G1 X124.969 Y75.717 E16.17714
G1 X125.516 Y76.258 E16.21552
G1 X126.004 Y76.853 E16.25391
G1 X126.427 Y77.495 E16.29227
G1 X126.782 Y78.178 E16.33067
G1 X127.063 Y78.893 E16.369
G1 X127.269 Y79.635 E16.40742
G1 X127.397 Y80.393 E16.44577
G1 X127.446 Y81.242 E16.4882
G1 X127.446 Y110.172 E17.93152
G1 X127.488 Y110.323 E17.93934
G1 X127.616 Y111.081 E17.97769
G1 X127.665 Y111.93 E18.02012
G1 X127.665 Y120.699 E18.45761
G1 X127.625 Y121.467 E18.49597
G1 X127.506 Y122.227 E18.53435
G1 X127.308 Y122.97 E18.57272
G1 X127.034 Y123.689 E18.6111
G1 X126.687 Y124.375 E18.64946
G1 X126.271 Y125.022 E18.68783
G1 X125.79 Y125.622 E18.7262
G1 X125.249 Y126.169 E18.76458
G1 X124.654 Y126.657 E18.80297
G1 X124.012 Y127.08 E18.84133
G1 X123.329 Y127.435 E18.87973
G1 X122.614 Y127.716 E18.91806
G1 X121.872 Y127.922 E18.95648
G1 X121.114 Y128.05 E18.99483
G1 X120.265 Y128.099 E19.03726
G1 X108.396 Y128.099 E19.6294
G1 X107.628 Y128.059 E19.66777
G1 X106.868 Y127.94 E19.70615
G1 X106.125 Y127.742 E19.74451
G1 X105.406 Y127.468 E19.7829
G1 X104.72 Y127.121 E19.82125
G1 X104.073 Y126.705 E19.85963
G1 X103.473 Y126.224 E19.898
G1 X102.926 Y125.683 E19.93638
G1 X102.438 Y125.088 E19.97477
G1 X102.015 Y124.446 E20.01313
G1 X101.66 Y123.763 E20.05153
G1 X101.379 Y123.048 E20.08986
G1 X101.173 Y122.306 E20.12828
G1 X101.045 Y121.548 E20.16663
G1 X100.996 Y120.699 E20.20905
G1 X100.996 Y111.93 E20.64654
G1 X101.036 Y111.162 E20.68491
G1 X101.155 Y110.402 E20.72329
G1 X101.353 Y109.659 E20.76165
G1 X101.627 Y108.94 E20.80004
G1 X101.974 Y108.254 E20.83839
G1 X102.39 Y107.607 E20.87677
G1 X102.871 Y107.007 E20.91513
G1 X103.412 Y106.46 E20.95352
G1 X104.007 Y105.972 E20.99191
G1 X104.624 Y105.565 E21.02878
G1 X104.624 Y97.41 E21.43564
G1 X95.362 Y97.41 E21.89772
G1 X95.362 Y105.393 E22.29599
G1 X95.59 Y105.508 E22.30873
G1 X96.237 Y105.924 E22.34711
G1 X96.837 Y106.405 E22.38548
G1 X97.384 Y106.946 E22.42386
G1 X97.872 Y107.541 E22.46225
G1 X98.295 Y108.183 E22.50061
G1 X98.65 Y108.866 E22.53901
G1 X98.931 Y109.581 E22.57734
G1 X99.137 Y110.323 E22.61576
G1 X99.265 Y111.081 E22.65411
G1 X99.314 Y111.931 E22.69659
G1 X99.313 Y120.7 E23.13407
G1 X99.273 Y121.468 E23.17244
G1 X99.153 Y122.228 E23.21083
G1 X98.956 Y122.971 E23.24918
G1 X98.682 Y123.69 E23.28756
G1 X98.335 Y124.376 E23.32592
G1 X97.918 Y125.023 E23.36432
G1 X97.437 Y125.623 E23.40269
G1 X96.896 Y126.17 E23.44107
G1 X96.301 Y126.657 E23.47943
G1 X95.659 Y127.081 E23.51781
G1 X94.976 Y127.435 E23.55619
G1 X94.261 Y127.717 E23.59454
G1 X93.52 Y127.922 E23.6329
G1 X92.761 Y128.05 E23.6713
G1 X91.913 Y128.099 E23.71367
G1 X79.941 Y128.099 E24.31096
G1 X79.173 Y128.059 E24.34933
G1 X78.413 Y127.94 E24.38771
G1 X77.67 Y127.742 E24.42607
G1 X76.951 Y127.468 E24.46446
G1 X76.265 Y127.121 E24.50281
G1 X75.618 Y126.705 E24.54118
G1 X75.018 Y126.224 E24.57955
G1 X74.471 Y125.683 E24.61793
G1 X73.983 Y125.088 E24.65632
G1 X73.56 Y124.446 E24.69468
G1 X73.205 Y123.763 E24.73308
G1 X72.924 Y123.048 E24.77141
G1 X72.718 Y122.306 E24.80983
G1 X72.59 Y121.548 E24.84818
G1 X72.541 Y120.699 E24.89061
G1 X72.541 Y81.242 E26.85913
G1 X72.581 Y80.474 E26.8975
G1 X72.7 Y79.714 E26.93587
G1 X72.898 Y78.971 E26.97424
G1 X73.172 Y78.252 E27.01262
G1 X73.519 Y77.566 E27.05098
G1 X73.935 Y76.919 E27.08935
G1 X74.416 Y76.319 E27.12772
G1 X74.957 Y75.772 E27.1661
G0 F3600 X75.349 Y75.958
G1 F3000 X75.939 Y75.499 E27.2034
G1 X76.575 Y75.104 E27.24075
G1 X77.249 Y74.78 E27.27806
G1 X77.954 Y74.53 E27.31537
G1 X78.682 Y74.356 E27.35272
G1 X79.424 Y74.261 E27.39004
G1 X79.941 Y74.242 E27.41585
G1 X120.046 Y74.242 E29.4167
G1 X120.793 Y74.282 E29.45402
G1 X121.531 Y74.401 E29.49131
G1 X122.253 Y74.599 E29.52866
G1 X122.949 Y74.872 E29.56596
G1 X123.612 Y75.219 E29.6033
G1 X124.235 Y75.634 E29.64064
G1 X124.809 Y76.113 E29.67794
G1 X125.33 Y76.65 E29.71527
G1 X125.789 Y77.24 E29.75256
G1 X126.184 Y77.876 E29.78991
G1 X126.508 Y78.55 E29.82722
G1 X126.758 Y79.255 E29.86454
G1 X126.932 Y79.983 E29.90188
G1 X127.027 Y80.725 E29.93921
G1 X127.046 Y81.242 E29.96502
G1 X127.046 Y110.232 E31.41133
G1 X127.151 Y110.671 E31.43385
G1 X127.246 Y111.413 E31.47117
G1 X127.265 Y111.93 E31.49698
G1 X127.265 Y120.699 E31.93447
G1 X127.225 Y121.446 E31.97179
G1 X127.106 Y122.184 E32.00909
G1 X126.908 Y122.906 E32.04644
G1 X126.635 Y123.602 E32.08374
G1 X126.288 Y124.265 E32.12107
G1 X125.873 Y124.888 E32.15842
G1 X125.394 Y125.462 E32.19572
G1 X124.857 Y125.983 E32.23304
G1 X124.267 Y126.442 E32.27034
G1 X123.631 Y126.837 E32.30769
G1 X122.957 Y127.161 E32.345
G1 X122.252 Y127.411 E32.38232
G1 X121.524 Y127.585 E32.41966
G1 X120.782 Y127.68 E32.45698
G1 X120.265 Y127.699 E32.48279
G1 X108.396 Y127.699 E33.07494
G1 X107.649 Y127.659 E33.11226
G1 X106.911 Y127.54 E33.14955
G1 X106.189 Y127.342 E33.1869
G1 X105.493 Y127.069 E33.2242
G1 X104.83 Y126.722 E33.26154
G1 X104.207 Y126.307 E33.29888
G1 X103.633 Y125.828 E33.33618
G1 X103.112 Y125.291 E33.37351
G1 X102.653 Y124.701 E33.4108
G1 X102.258 Y124.065 E33.44816
G1 X101.934 Y123.391 E33.48547
G1 X101.684 Y122.686 E33.52278
G1 X101.51 Y121.958 E33.56013
G1 X101.415 Y121.216 E33.59745
G1 X101.396 Y120.699 E33.62326
G1 X101.396 Y111.93 E34.06075
G1 X101.436 Y111.183 E34.09807
G1 X101.555 Y110.445 E34.13536
G1 X101.753 Y109.723 E34.17271
G1 X102.026 Y109.027 E34.21001
G1 X102.373 Y108.364 E34.24734
G1 X102.788 Y107.741 E34.28469
G1 X103.267 Y107.167 E34.32199
G1 X103.804 Y106.646 E34.35932
G1 X104.394 Y106.187 E34.39661
G1 X105.024 Y105.796 E34.4336
G1 X105.024 Y97.01 E34.87194
G1 X94.962 Y97.01 E35.37393
G1 X94.962 Y105.636 E35.80429
G1 X95.48 Y105.907 E35.83345
G1 X96.103 Y106.322 E35.8708
G1 X96.677 Y106.801 E35.9081
G1 X97.198 Y107.338 E35.94543
G1 X97.657 Y107.928 E35.98272
G1 X98.052 Y108.564 E36.02007
G1 X98.376 Y109.238 E36.05738
G1 X98.626 Y109.943 E36.0947
G1 X98.8 Y110.671 E36.13204
G1 X98.895 Y111.413 E36.16936
G1 X98.914 Y111.931 E36.19522
G1 X98.913 Y120.7 E36.63271
G1 X98.873 Y121.447 E36.67003
G1 X98.753 Y122.185 E36.70733
G1 X98.556 Y122.907 E36.74467
G1 X98.282 Y123.603 E36.78199
G1 X97.936 Y124.266 E36.8193
G1 X97.521 Y124.888 E36.8566
G1 X97.042 Y125.463 E36.89394
G1 X96.504 Y125.983 E36.93127
G1 X95.914 Y126.443 E36.96859
G1 X95.278 Y126.837 E37.00592
G1 X94.604 Y127.161 E37.04323
G1 X93.899 Y127.411 E37.08055
G1 X93.171 Y127.585 E37.11789
G1 X92.429 Y127.68 E37.15521
G1 X91.913 Y127.699 E37.18097
G1 X79.941 Y127.699 E37.77826
G1 X79.194 Y127.659 E37.81558
G1 X78.456 Y127.54 E37.85287
G1 X77.734 Y127.342 E37.89022
G1 X77.038 Y127.069 E37.92752
G1 X76.375 Y126.722 E37.96486
G1 X75.752 Y126.307 E38.0022
G1 X75.178 Y125.828 E38.0395
G1 X74.657 Y125.291 E38.07683
G1 X74.198 Y124.701 E38.11412
G1 X73.803 Y124.065 E38.15148
G1 X73.479 Y123.391 E38.18879
G1 X73.229 Y122.686 E38.2261
G1 X73.055 Y121.958 E38.26345
G1 X72.96 Y121.216 E38.30077
G1 X72.941 Y120.699 E38.32658
G1 X72.941 Y81.242 E40.2951
G1 X72.981 Y80.495 E40.33242
G1 X73.1 Y79.757 E40.36971
G1 X73.298 Y79.035 E40.40706
G1 X73.571 Y78.339 E40.44436
G1 X73.918 Y77.676 E40.4817
G1 X74.333 Y77.053 E40.51904
G1 X74.812 Y76.479 E40.55634
G1 X75.349 Y75.958 E40.59367
G0 F3600 X75.206 Y76.644
G1 F3000 X75.74 Y76.151 E40.62993
G1 X76.325 Y75.721 E40.66615
G1 X76.954 Y75.357 E40.70241
G1 X77.619 Y75.064 E40.73866
G1 X78.312 Y74.846 E40.7749
G1 X79.024 Y74.706 E40.81111
G1 X79.941 Y74.642 E40.85697
G1 X120.046 Y74.642 E42.85781
G1 X120.771 Y74.682 E42.89404
G1 X121.488 Y74.801 E42.9303
G1 X122.187 Y74.999 E42.96655
G1 X122.86 Y75.272 E43.00278
G1 X123.499 Y75.617 E43.03901
G1 X124.096 Y76.031 E43.07525
G1 X124.644 Y76.507 E43.11147
G1 X125.137 Y77.041 E43.14773
G1 X125.567 Y77.626 E43.18395
G1 X125.931 Y78.255 E43.2202
G1 X126.224 Y78.92 E43.25646
G1 X126.442 Y79.613 E43.2927
G1 X126.582 Y80.325 E43.32891
G1 X126.646 Y81.242 E43.37477
G1 X126.646 Y110.253 E44.82213
G1 X126.661 Y110.301 E44.82464
G1 X126.801 Y111.013 E44.86084
G1 X126.865 Y111.93 E44.9067
G1 X126.865 Y120.699 E45.34419
G1 X126.825 Y121.424 E45.38042
G1 X126.706 Y122.141 E45.41668
G1 X126.508 Y122.84 E45.45292
G1 X126.235 Y123.513 E45.48915
G1 X125.89 Y124.152 E45.52538
G1 X125.476 Y124.749 E45.56163
G1 X125 Y125.297 E45.59784
G1 X124.466 Y125.79 E45.6341
G1 X123.881 Y126.22 E45.67032
G1 X123.252 Y126.584 E45.70658
G1 X122.587 Y126.877 E45.74284
G1 X121.894 Y127.095 E45.77908
G1 X121.182 Y127.235 E45.81528
G1 X120.265 Y127.299 E45.86114
G1 X108.396 Y127.299 E46.45329
G1 X107.671 Y127.259 E46.48951
G1 X106.954 Y127.14 E46.52577
G1 X106.255 Y126.942 E46.56202
G1 X105.582 Y126.669 E46.59825
G1 X104.943 Y126.324 E46.63448
G1 X104.346 Y125.91 E46.67073
G1 X103.798 Y125.434 E46.70694
G1 X103.305 Y124.9 E46.7432
G1 X102.875 Y124.315 E46.77942
G1 X102.511 Y123.686 E46.81568
G1 X102.218 Y123.021 E46.85193
G1 X102 Y122.328 E46.88818
G1 X101.86 Y121.616 E46.92438
G1 X101.796 Y120.699 E46.97024
G1 X101.796 Y111.93 E47.40773
G1 X101.836 Y111.205 E47.44395
G1 X101.955 Y110.488 E47.48021
G1 X102.153 Y109.789 E47.51646
G1 X102.426 Y109.116 E47.55269
G1 X102.771 Y108.477 E47.58892
G1 X103.185 Y107.88 E47.62517
G1 X103.661 Y107.332 E47.66138
G1 X104.195 Y106.839 E47.69764
G1 X104.78 Y106.409 E47.73386
G1 X105.409 Y106.045 E47.77012
G1 X105.424 Y106.038 E47.77095
G1 X105.424 Y96.61 E48.24131
G1 X94.562 Y96.61 E48.78322
G1 X94.562 Y105.893 E49.24635
G1 X94.728 Y105.96 E49.25528
G1 X95.367 Y106.305 E49.29151
G1 X95.964 Y106.719 E49.32775
G1 X96.512 Y107.195 E49.36397
G1 X97.005 Y107.729 E49.40023
G1 X97.435 Y108.314 E49.43645
G1 X97.799 Y108.943 E49.47271
G1 X98.092 Y109.608 E49.50896
G1 X98.31 Y110.301 E49.5452
G1 X98.45 Y111.013 E49.58141
G1 X98.514 Y111.931 E49.62732
G1 X98.513 Y120.7 E50.0648
G1 X98.473 Y121.425 E50.10103
G1 X98.353 Y122.141 E50.13725
G1 X98.156 Y122.84 E50.17348
G1 X97.883 Y123.514 E50.20976
G1 X97.537 Y124.152 E50.24597
G1 X97.124 Y124.75 E50.28223
G1 X96.647 Y125.298 E50.31847
G1 X96.113 Y125.79 E50.3547
G1 X95.528 Y126.221 E50.39095
G1 X94.9 Y126.585 E50.42716
G1 X94.235 Y126.877 E50.4634
G1 X93.542 Y127.095 E50.49964
G1 X92.829 Y127.235 E50.53589
G1 X91.913 Y127.299 E50.5817
G1 X79.941 Y127.299 E51.17899
G1 X79.216 Y127.259 E51.21522
G1 X78.499 Y127.14 E51.25148
G1 X77.8 Y126.942 E51.28772
G1 X77.127 Y126.669 E51.32395
G1 X76.488 Y126.324 E51.36018
G1 X75.891 Y125.91 E51.39643
G1 X75.343 Y125.434 E51.43264
G1 X74.85 Y124.9 E51.4689
G1 X74.42 Y124.315 E51.50512
G1 X74.056 Y123.686 E51.54138
G1 X73.763 Y123.021 E51.57764
G1 X73.545 Y122.328 E51.61388
G1 X73.405 Y121.616 E51.65008
G1 X73.341 Y120.699 E51.69594
G1 X73.341 Y81.242 E53.66446
G1 X73.381 Y80.517 E53.70069
G1 X73.5 Y79.8 E53.73695
G1 X73.698 Y79.101 E53.77319
G1 X73.971 Y78.428 E53.80942
G1 X74.316 Y77.789 E53.84565
G1 X74.73 Y77.192 E53.8819
G1 X75.206 Y76.644 E53.91811
G0 F3600 X75.6 Y76.815
G1 F3000 X76.13 Y76.351 E53.95326
G1 X76.709 Y75.951 E53.98837
G1 X77.33 Y75.619 E54.0235
G1 X77.984 Y75.359 E54.05861
G1 X78.664 Y75.175 E54.09375
G1 X79.36 Y75.069 E54.12888
G1 X79.941 Y75.042 E54.1579
G1 X120.046 Y75.042 E56.15874
