;FLAVOR:Marlin
;TIME:5852
;Filament used: 6.52553m
;Layer height: 0.2
;MINX:67.126
;MINY:68.752
;MINZ:0.3
;MAXX:133.131
;MAXY:133.674
;MAXZ:32.7
;Generated with Cura_SteamEngine 4.13.1
M140 S60
M105
M190 S60
M104 S200
M105
M109 S200
M82 ;absolute extrusion mode
G21 ;metric values
 G90 ;absolute positioning
 M82 ;set extruder to absolute mode
 M107 ;start with the fan off
 G28 X0 Y0 ;move X/Y to min endstops
 G28 Z0 ;move Z to min endstops
 G1 Z15.0 F120 ;move the platform down 15mm
 G92 E0 ;zero the extruded length
 G1 F200 E6 ;extrude 6 mm of feed stock
 G92 E0 ;zero the extruded length again
 G1 F120 
 ;Put printing message on LCD screen
 M117 Printing...
G92 E0
G92 E0
G1 F1500 E-6.5
;LAYER_COUNT:163
;LAYER:0
M107
G0 F3600 X69.549 Y70.901 Z0.3
;TYPE:SKIRT
G1 F1500 E0
G1 F3000 X70.148 Y70.386 E0.03941
G1 X70.796 Y69.935 E0.0788
G1 X71.487 Y69.551 E0.11824
G1 X72.212 Y69.239 E0.15762
G1 X72.965 Y69.002 E0.197
G1 X73.739 Y68.843 E0.23642
G1 X74.524 Y68.762 E0.27579
G1 X74.926 Y68.752 E0.29586
G1 X125.057 Y68.752 E2.7969
G1 X125.846 Y68.792 E2.83632
G1 X126.626 Y68.911 E2.87568
G1 X127.391 Y69.109 E2.9151
G1 X128.131 Y69.383 E2.95447
G1 X128.84 Y69.731 E2.99388
G1 X129.511 Y70.149 E3.03332
G1 X130.135 Y70.632 E3.07268
G1 X130.708 Y71.175 E3.11207
G1 X131.223 Y71.774 E3.15148
G1 X131.674 Y72.422 E3.19087
G1 X132.058 Y73.113 E3.23031
G1 X132.37 Y73.838 E3.26968
G1 X132.607 Y74.591 E3.30907
G1 X132.766 Y75.365 E3.34849
G1 X132.847 Y76.15 E3.38786
G1 X132.857 Y76.552 E3.40792
G1 X132.857 Y112.877 E5.22018
G1 X132.881 Y112.953 E5.22416
G1 X133.04 Y113.727 E5.26358
G1 X133.121 Y114.512 E5.30295
G1 X133.131 Y114.914 E5.32302
G1 X133.131 Y125.874 E5.86981
G1 X133.091 Y126.663 E5.90923
G1 X132.972 Y127.443 E5.94859
G1 X132.774 Y128.208 E5.98802
G1 X132.5 Y128.948 E6.02738
G1 X132.152 Y129.657 E6.06679
G1 X131.734 Y130.328 E6.10623
G1 X131.251 Y130.952 E6.1456
G1 X130.708 Y131.525 E6.18498
G1 X130.109 Y132.04 E6.22439
G1 X129.461 Y132.491 E6.26378
G1 X128.77 Y132.875 E6.30322
G1 X128.045 Y133.187 E6.3426
G1 X127.292 Y133.424 E6.38198
G1 X126.518 Y133.583 E6.4214
G1 X125.733 Y133.664 E6.46077
G1 X125.331 Y133.674 E6.48084
G1 X110.496 Y133.674 E7.22096
G1 X109.707 Y133.634 E7.26037
G1 X108.927 Y133.515 E7.29973
G1 X108.162 Y133.317 E7.33916
G1 X107.422 Y133.043 E7.37853
G1 X106.713 Y132.695 E7.41793
G1 X106.042 Y132.277 E7.45737
G1 X105.418 Y131.794 E7.49674
G1 X104.845 Y131.251 E7.53612
G1 X104.33 Y130.652 E7.57553
G1 X103.879 Y130.004 E7.61492
G1 X103.495 Y129.313 E7.65436
G1 X103.183 Y128.588 E7.69374
G1 X102.946 Y127.835 E7.73312
G1 X102.787 Y127.061 E7.77254
G1 X102.706 Y126.276 E7.81192
G1 X102.696 Y125.874 E7.83198
G1 X102.696 Y114.914 E8.37877
G1 X102.736 Y114.125 E8.41819
G1 X102.855 Y113.345 E8.45755
G1 X103.053 Y112.58 E8.49698
G1 X103.327 Y111.84 E8.53635
G1 X103.675 Y111.131 E8.57575
G1 X104.093 Y110.46 E8.61519
G1 X104.576 Y109.836 E8.65456
G1 X105.119 Y109.263 E8.69394
G1 X105.718 Y108.748 E8.73335
G1 X106.366 Y108.297 E8.77274
G1 X107.057 Y107.913 E8.81218
G1 X107.23 Y107.839 E8.82157
G1 X107.23 Y95.312 E9.44654
G1 X92.752 Y95.312 E10.16885
G1 X92.752 Y107.666 E10.7852
G1 X92.965 Y107.745 E10.79653
G1 X93.674 Y108.093 E10.83593
G1 X94.345 Y108.511 E10.87537
G1 X94.969 Y108.994 E10.91474
G1 X95.542 Y109.537 E10.95413
G1 X96.057 Y110.136 E10.99354
G1 X96.508 Y110.784 E11.03292
G1 X96.892 Y111.475 E11.07236
G1 X97.204 Y112.2 E11.11174
G1 X97.441 Y112.953 E11.15113
G1 X97.6 Y113.727 E11.19055
G1 X97.681 Y114.512 E11.22992
G1 X97.691 Y114.914 E11.24998
G1 X97.691 Y125.874 E11.79678
G1 X97.651 Y126.663 E11.83619
G1 X97.532 Y127.443 E11.87556
G1 X97.334 Y128.208 E11.91498
G1 X97.06 Y128.948 E11.95435
G1 X96.712 Y129.657 E11.99375
G1 X96.294 Y130.328 E12.03319
G1 X95.811 Y130.952 E12.07256
G1 X95.268 Y131.525 E12.11194
G1 X94.669 Y132.04 E12.15136
G1 X94.021 Y132.491 E12.19074
G1 X93.33 Y132.875 E12.23018
G1 X92.605 Y133.187 E12.26956
G1 X91.852 Y133.424 E12.30894
G1 X91.078 Y133.583 E12.34837
G1 X90.293 Y133.664 E12.38774
G1 X89.891 Y133.674 E12.4078
G1 X74.926 Y133.674 E13.15441
G1 X74.137 Y133.634 E13.19382
G1 X73.357 Y133.515 E13.23319
G1 X72.592 Y133.317 E13.27261
G1 X71.852 Y133.043 E13.31198
G1 X71.143 Y132.695 E13.35138
G1 X70.472 Y132.277 E13.39082
G1 X69.848 Y131.794 E13.43019
G1 X69.275 Y131.251 E13.46957
G1 X68.76 Y130.652 E13.50898
G1 X68.309 Y130.004 E13.54837
G1 X67.925 Y129.313 E13.58781
G1 X67.613 Y128.588 E13.62719
G1 X67.376 Y127.835 E13.66657
G1 X67.217 Y127.061 E13.706
G1 X67.136 Y126.276 E13.74537
G1 X67.126 Y125.874 E13.76543
G1 X67.126 Y76.552 E16.22611
G1 X67.166 Y75.763 E16.26553
G1 X67.285 Y74.983 E16.30489
G1 X67.483 Y74.218 E16.34432
G1 X67.757 Y73.478 E16.38368
G1 X68.105 Y72.769 E16.42309
G1 X68.523 Y72.098 E16.46253
G1 X69.006 Y71.474 E16.5019
G1 X69.549 Y70.901 E16.54128
G0 F3600 X69.942 Y71.082
G1 F3000 X70.537 Y70.594 E16.57967
G1 X71.179 Y70.171 E16.61803
G1 X71.862 Y69.816 E16.65643
G1 X72.577 Y69.535 E16.69476
G1 X73.319 Y69.329 E16.73318
G1 X74.077 Y69.201 E16.77153
G1 X74.926 Y69.152 E16.81396
G1 X125.057 Y69.152 E19.315
G1 X125.825 Y69.192 E19.35337
G1 X126.585 Y69.311 E19.39175
G1 X127.328 Y69.509 E19.43011
G1 X128.047 Y69.783 E19.4685
G1 X128.733 Y70.13 E19.50685
G1 X129.38 Y70.546 E19.54523
G1 X129.98 Y71.027 E19.58359
G1 X130.527 Y71.568 E19.62198
G1 X131.015 Y72.163 E19.66037
G1 X131.438 Y72.805 E19.69872
G1 X131.793 Y73.488 E19.73713
G1 X132.074 Y74.203 E19.77546
G1 X132.28 Y74.945 E19.81387
G1 X132.408 Y75.703 E19.85223
G1 X132.457 Y76.552 E19.89465
G1 X132.457 Y112.958 E21.71096
G1 X132.554 Y113.307 E21.72903
G1 X132.682 Y114.065 E21.76738
G1 X132.731 Y114.914 E21.80981
G1 X132.731 Y125.874 E22.3566
G1 X132.691 Y126.642 E22.39497
G1 X132.572 Y127.402 E22.43335
G1 X132.374 Y128.145 E22.47171
G1 X132.1 Y128.864 E22.5101
G1 X131.753 Y129.55 E22.54845
G1 X131.337 Y130.197 E22.58683
G1 X130.856 Y130.797 E22.62519
G1 X130.315 Y131.344 E22.66358
G1 X129.72 Y131.832 E22.70197
G1 X129.078 Y132.255 E22.74033
G1 X128.395 Y132.61 E22.77873
G1 X127.68 Y132.891 E22.81706
G1 X126.938 Y133.097 E22.85548
G1 X126.18 Y133.225 E22.89383
G1 X125.331 Y133.274 E22.93625
G1 X110.496 Y133.274 E23.67638
G1 X109.728 Y133.234 E23.71474
G1 X108.968 Y133.115 E23.75312
G1 X108.225 Y132.917 E23.79148
G1 X107.506 Y132.643 E23.82987
G1 X106.82 Y132.296 E23.86823
G1 X106.173 Y131.88 E23.9066
G1 X105.573 Y131.399 E23.94497
G1 X105.026 Y130.858 E23.98335
G1 X104.538 Y130.263 E24.02174
G1 X104.115 Y129.621 E24.0601
G1 X103.76 Y128.938 E24.0985
G1 X103.479 Y128.223 E24.13683
G1 X103.273 Y127.481 E24.17525
G1 X103.145 Y126.723 E24.2136
G1 X103.096 Y125.874 E24.25603
G1 X103.096 Y114.914 E24.80282
G1 X103.136 Y114.146 E24.84119
G1 X103.255 Y113.386 E24.87957
G1 X103.453 Y112.643 E24.91793
G1 X103.727 Y111.924 E24.95632
G1 X104.074 Y111.238 E24.99467
G1 X104.49 Y110.591 E25.03305
G1 X104.971 Y109.991 E25.07141
G1 X105.512 Y109.444 E25.1098
G1 X106.107 Y108.956 E25.14819
G1 X106.749 Y108.533 E25.18654
G1 X107.432 Y108.178 E25.22495
G1 X107.63 Y108.1 E25.23556
G1 X107.63 Y94.912 E25.89352
G1 X92.352 Y94.912 E26.65574
G1 X92.352 Y107.943 E27.30586
G1 X92.881 Y108.145 E27.33411
G1 X93.567 Y108.492 E27.37246
G1 X94.214 Y108.908 E27.41084
G1 X94.814 Y109.389 E27.4492
G1 X95.361 Y109.93 E27.48759
G1 X95.849 Y110.525 E27.52598
G1 X96.272 Y111.167 E27.56434
G1 X96.627 Y111.85 E27.60274
G1 X96.908 Y112.565 E27.64107
G1 X97.114 Y113.307 E27.67948
G1 X97.242 Y114.065 E27.71784
G1 X97.291 Y114.914 E27.76026
G1 X97.291 Y125.874 E28.30706
G1 X97.251 Y126.642 E28.34543
G1 X97.132 Y127.402 E28.38381
G1 X96.934 Y128.145 E28.42217
G1 X96.66 Y128.864 E28.46056
G1 X96.313 Y129.55 E28.49891
G1 X95.897 Y130.197 E28.53729
G1 X95.416 Y130.797 E28.57565
G1 X94.875 Y131.344 E28.61403
G1 X94.28 Y131.832 E28.65243
G1 X93.638 Y132.255 E28.69078
G1 X92.955 Y132.61 E28.72919
G1 X92.24 Y132.891 E28.76751
G1 X91.498 Y133.097 E28.80593
G1 X90.74 Y133.225 E28.84428
G1 X89.891 Y133.274 E28.88671
G1 X74.926 Y133.274 E29.63332
G1 X74.158 Y133.234 E29.67169
G1 X73.398 Y133.115 E29.71006
G1 X72.655 Y132.917 E29.74843
G1 X71.936 Y132.643 E29.78681
G1 X71.25 Y132.296 E29.82517
G1 X70.603 Y131.88 E29.86354
G1 X70.003 Y131.399 E29.90191
G1 X69.456 Y130.858 E29.94029
G1 X68.968 Y130.263 E29.97868
G1 X68.545 Y129.621 E30.01704
G1 X68.19 Y128.938 E30.05544
G1 X67.909 Y128.223 E30.09377
G1 X67.703 Y127.481 E30.13219
G1 X67.575 Y126.723 E30.17054
G1 X67.526 Y125.874 E30.21297
G1 X67.526 Y76.552 E32.67365
G1 X67.566 Y75.784 E32.71202
G1 X67.685 Y75.024 E32.7504
G1 X67.883 Y74.281 E32.78876
G1 X68.157 Y73.562 E32.82715
G1 X68.504 Y72.876 E32.8655
G1 X68.92 Y72.229 E32.90388
G1 X69.401 Y71.629 E32.94224
G1 X69.942 Y71.082 E32.98063
G0 F3600 X70.334 Y71.268
G1 F3000 X70.924 Y70.809 E33.01792
G1 X71.56 Y70.414 E33.05527
G1 X72.234 Y70.09 E33.09258
G1 X72.939 Y69.84 E33.1299
G1 X73.667 Y69.666 E33.16724
G1 X74.409 Y69.571 E33.20456
G1 X74.926 Y69.552 E33.23037
G1 X125.057 Y69.552 E35.73142
G1 X125.804 Y69.592 E35.76874
G1 X126.542 Y69.711 E35.80604
G1 X127.264 Y69.909 E35.84339
G1 X127.96 Y70.182 E35.88069
G1 X128.623 Y70.529 E35.91802
G1 X129.246 Y70.944 E35.95537
G1 X129.82 Y71.423 E35.99266
G1 X130.341 Y71.96 E36.02999
G1 X130.8 Y72.55 E36.06729
G1 X131.195 Y73.186 E36.10464
G1 X131.519 Y73.86 E36.14195
G1 X131.769 Y74.565 E36.17927
G1 X131.943 Y75.293 E36.21661
G1 X132.038 Y76.035 E36.25393
G1 X132.057 Y76.552 E36.27974
G1 X132.057 Y112.986 E38.09744
G1 X132.217 Y113.655 E38.13176
G1 X132.312 Y114.397 E38.16908
G1 X132.331 Y114.914 E38.19489
G1 X132.331 Y125.874 E38.74169
G1 X132.291 Y126.621 E38.77901
G1 X132.172 Y127.359 E38.8163
G1 X131.974 Y128.081 E38.85365
G1 X131.701 Y128.777 E38.89095
G1 X131.354 Y129.44 E38.92829
G1 X130.939 Y130.063 E38.96563
G1 X130.46 Y130.637 E39.00293
G1 X129.923 Y131.158 E39.04026
G1 X129.333 Y131.617 E39.07755
G1 X128.697 Y132.012 E39.1149
G1 X128.023 Y132.336 E39.15221
G1 X127.318 Y132.586 E39.18953
G1 X126.59 Y132.76 E39.22687
G1 X125.848 Y132.855 E39.2642
G1 X125.331 Y132.874 E39.29001
G1 X110.496 Y132.874 E40.03013
G1 X109.749 Y132.834 E40.06745
G1 X109.011 Y132.715 E40.10474
G1 X108.289 Y132.517 E40.14209
G1 X107.593 Y132.244 E40.17939
G1 X106.93 Y131.897 E40.21673
G1 X106.307 Y131.482 E40.25407
G1 X105.733 Y131.003 E40.29137
G1 X105.212 Y130.466 E40.3287
G1 X104.753 Y129.876 E40.36599
G1 X104.358 Y129.24 E40.40334
G1 X104.034 Y128.566 E40.44065
G1 X103.784 Y127.861 E40.47797
G1 X103.61 Y127.133 E40.51532
G1 X103.515 Y126.391 E40.55264
G1 X103.496 Y125.874 E40.57845
G1 X103.496 Y114.914 E41.12524
G1 X103.536 Y114.167 E41.16257
G1 X103.655 Y113.429 E41.19986
G1 X103.853 Y112.707 E41.23721
G1 X104.126 Y112.011 E41.27451
G1 X104.473 Y111.348 E41.31184
G1 X104.888 Y110.725 E41.34919
G1 X105.367 Y110.151 E41.38649
G1 X105.904 Y109.63 E41.42382
G1 X106.494 Y109.171 E41.46111
G1 X107.13 Y108.776 E41.49846
G1 X107.804 Y108.452 E41.53577
G1 X108.03 Y108.372 E41.54773
G1 X108.03 Y94.512 E42.23921
G1 X91.952 Y94.512 E43.04134
G1 X91.952 Y108.231 E43.72579
G1 X92.098 Y108.271 E43.73334
G1 X92.794 Y108.544 E43.77064
G1 X93.457 Y108.891 E43.80797
G1 X94.08 Y109.306 E43.84532
G1 X94.654 Y109.785 E43.88262
G1 X95.175 Y110.322 E43.91995
G1 X95.634 Y110.912 E43.95724
G1 X96.029 Y111.548 E43.99459
G1 X96.353 Y112.222 E44.0319
G1 X96.603 Y112.927 E44.06922
G1 X96.777 Y113.655 E44.10656
G1 X96.872 Y114.397 E44.14388
G1 X96.891 Y114.914 E44.16969
G1 X96.891 Y125.874 E44.71649
G1 X96.851 Y126.621 E44.75381
G1 X96.732 Y127.359 E44.79111
G1 X96.534 Y128.081 E44.82846
G1 X96.261 Y128.777 E44.86576
G1 X95.914 Y129.44 E44.90309
G1 X95.499 Y130.063 E44.94044
G1 X95.02 Y130.637 E44.97773
G1 X94.483 Y131.158 E45.01506
G1 X93.893 Y131.617 E45.05236
G1 X93.257 Y132.012 E45.08971
G1 X92.583 Y132.336 E45.12702
G1 X91.878 Y132.586 E45.16434
G1 X91.15 Y132.76 E45.20168
G1 X90.408 Y132.855 E45.239
G1 X89.891 Y132.874 E45.26481
G1 X74.926 Y132.874 E46.01142
G1 X74.179 Y132.834 E46.04874
G1 X73.441 Y132.715 E46.08603
G1 X72.719 Y132.517 E46.12338
G1 X72.023 Y132.244 E46.16068
G1 X71.36 Y131.897 E46.19802
G1 X70.737 Y131.482 E46.23536
G1 X70.163 Y131.003 E46.27266
G1 X69.642 Y130.466 E46.30999
G1 X69.183 Y129.876 E46.34728
G1 X68.788 Y129.24 E46.38464
G1 X68.464 Y128.566 E46.42194
G1 X68.214 Y127.861 E46.45926
G1 X68.04 Y127.133 E46.49661
G1 X67.945 Y126.391 E46.53393
G1 X67.926 Y125.874 E46.55974
G1 X67.926 Y76.552 E49.02042
G1 X67.966 Y75.805 E49.05774
G1 X68.085 Y75.067 E49.09504
G1 X68.283 Y74.345 E49.13239
G1 X68.556 Y73.649 E49.16969
G1 X68.903 Y72.986 E49.20702
G1 X69.318 Y72.363 E49.24437
G1 X69.797 Y71.789 E49.28167
G1 X70.334 Y71.268 E49.31899
G0 F3600 X70.191 Y71.954
G1 F3000 X70.725 Y71.461 E49.35525
G1 X71.31 Y71.031 E49.39148
G1 X71.939 Y70.667 E49.42773
G1 X72.604 Y70.374 E49.46399
G1 X73.297 Y70.156 E49.50023
G1 X74.009 Y70.016 E49.53643
G1 X74.926 Y69.952 E49.58229
G1 X125.057 Y69.952 E52.08334
G1 X125.782 Y69.992 E52.11956
G1 X126.499 Y70.111 E52.15583
G1 X127.198 Y70.309 E52.19207
G1 X127.871 Y70.582 E52.2283
G1 X128.51 Y70.927 E52.26453
G1 X129.107 Y71.341 E52.30078
G1 X129.655 Y71.817 E52.33699
G1 X130.148 Y72.351 E52.37325
G1 X130.578 Y72.936 E52.40947
G1 X130.942 Y73.565 E52.44573
G1 X131.235 Y74.23 E52.48198
G1 X131.453 Y74.923 E52.51823
G1 X131.593 Y75.635 E52.55443
G1 X131.657 Y76.552 E52.60029
G1 X131.657 Y113.062 E54.42178
G1 X131.727 Y113.285 E54.43344
G1 X131.867 Y113.997 E54.46965
G1 X131.931 Y114.914 E54.51551
G1 X131.931 Y125.874 E55.0623
G1 X131.891 Y126.599 E55.09853
G1 X131.772 Y127.316 E55.13479
G1 X131.574 Y128.015 E55.17103
G1 X131.301 Y128.688 E55.20727
G1 X130.956 Y129.327 E55.2435
G1 X130.542 Y129.924 E55.27974
G1 X130.066 Y130.472 E55.31596
G1 X129.532 Y130.965 E55.35222
G1 X128.947 Y131.395 E55.38844
G1 X128.318 Y131.759 E55.42469
G1 X127.653 Y132.052 E55.46095
G1 X126.96 Y132.27 E55.49719
G1 X126.248 Y132.41 E55.53339
G1 X125.331 Y132.474 E55.57926
G1 X110.496 Y132.474 E56.31938
G1 X109.771 Y132.434 E56.3556
G1 X109.054 Y132.315 E56.39186
G1 X108.355 Y132.117 E56.42811
G1 X107.682 Y131.844 E56.46434
G1 X107.043 Y131.499 E56.50057
G1 X106.446 Y131.085 E56.53682
G1 X105.898 Y130.609 E56.57303
G1 X105.405 Y130.075 E56.60929
G1 X104.975 Y129.49 E56.64551
G1 X104.611 Y128.861 E56.68177
G1 X104.318 Y128.196 E56.71802
G1 X104.1 Y127.503 E56.75427
G1 X103.96 Y126.791 E56.79047
G1 X103.896 Y125.874 E56.83633
G1 X103.896 Y114.914 E57.38313
G1 X103.936 Y114.189 E57.41935
G1 X104.055 Y113.472 E57.45561
G1 X104.253 Y112.773 E57.49186
G1 X104.526 Y112.1 E57.52809
G1 X104.871 Y111.461 E57.56432
G1 X105.285 Y110.864 E57.60057
G1 X105.761 Y110.316 E57.63678
G1 X106.295 Y109.823 E57.67304
G1 X106.88 Y109.393 E57.70926
G1 X107.509 Y109.029 E57.74552
G1 X108.174 Y108.736 E57.78177
G1 X108.43 Y108.655 E57.79517
G1 X108.43 Y94.112 E58.52072
G1 X91.552 Y94.112 E59.36277
G1 X91.552 Y108.535 E60.08233
G1 X92.032 Y108.671 E60.10722
G1 X92.705 Y108.944 E60.14346
G1 X93.344 Y109.289 E60.17969
G1 X93.941 Y109.703 E60.21593
G1 X94.489 Y110.179 E60.25215
G1 X94.982 Y110.713 E60.2884
G1 X95.412 Y111.298 E60.32463
G1 X95.776 Y111.927 E60.36088
G1 X96.069 Y112.592 E60.39714
G1 X96.287 Y113.285 E60.43338
G1 X96.427 Y113.997 E60.46958
G1 X96.491 Y114.914 E60.51544
G1 X96.491 Y125.874 E61.06224
G1 X96.451 Y126.599 E61.09847
G1 X96.332 Y127.316 E61.13473
G1 X96.134 Y128.015 E61.17097
G1 X95.861 Y128.688 E61.20721
G1 X95.516 Y129.327 E61.24344
G1 X95.102 Y129.924 E61.27968
G1 X94.626 Y130.472 E61.31589
G1 X94.092 Y130.965 E61.35215
G1 X93.507 Y131.395 E61.38838
G1 X92.878 Y131.759 E61.42463
G1 X92.213 Y132.052 E61.46089
G1 X91.52 Y132.27 E61.49713
G1 X90.808 Y132.41 E61.53333
G1 X89.891 Y132.474 E61.57919
G1 X74.926 Y132.474 E62.3258
G1 X74.201 Y132.434 E62.36203
G1 X73.484 Y132.315 E62.39829
G1 X72.785 Y132.117 E62.43453
G1 X72.112 Y131.844 E62.47076
G1 X71.473 Y131.499 E62.50699
G1 X70.876 Y131.085 E62.54324
G1 X70.328 Y130.609 E62.57945
G1 X69.835 Y130.075 E62.61571
G1 X69.405 Y129.49 E62.65193
G1 X69.041 Y128.861 E62.68819
G1 X68.748 Y128.196 E62.72445
G1 X68.53 Y127.503 E62.76069
G1 X68.39 Y126.791 E62.79689
